;This Gcode has been generated specifically for the LulzBot Mini
;Basic settings: Layer height: 0.25 Walls: 1 Fill: 20
;Filament Diameter: 2.85
;Nozzle Size: 0.5
G26                          ; clear potential 'probe fail' condition
G21                          ; metric values
G90                          ; absolute positioning
M82                          ; set extruder to absolute mode
M107                         ; start with the fan off
G92 E0                       ; set extruder position to 0
M140 S60; get bed heating up
G28                          ; home all
M109 R140                    ; set to cleaning temp and wait
G1 Z150 E-30 F75             ; suck up XXmm of filament
M109 R140                    ; heat up rest of way
G1 X45 Y174 F11520           ; move behind scraper
G1 Z0  F1200                 ; CRITICAL: set Z to height of top of scraper
G1 X45 Y174 Z-.5 F4000       ; wiping ; plunge into wipe pad
G1 X55 Y172 Z-.5 F4000       ; wiping
G1 X45 Y174 Z0 F4000         ; wiping
G1 X55 Y172 F4000            ; wiping
G1 X45 Y174 F4000            ; wiping
G1 X55 Y172 F4000            ; wiping
G1 X45 Y174 F4000            ; wiping
G1 X55 Y172 F4000            ; wiping
G1 X60 Y174 F4000            ; wiping
G1 X80 Y172 F4000            ; wiping
G1 X60 Y174 F4000            ; wiping
G1 X80 Y172 F4000            ; wiping
G1 X60 Y174 F4000            ; wiping
G1 X90 Y172 F4000            ; wiping
G1 X80 Y174 F4000            ; wiping
G1 X100 Y172 F4000           ; wiping
G1 X80 Y174 F4000            ; wiping
G1 X100 Y172 F4000           ; wiping
G1 X80 Y174 F4000            ; wiping
G1 X100 Y172 F4000           ; wiping
G1 X110 Y174 F4000           ; wiping
G1 X100 Y172 F4000           ; wiping
G1 X110 Y174 F4000           ; wiping
G1 X100 Y172 F4000           ; wiping
G1 X110 Y174 F4000           ; wiping
G1 X115 Y172 Z-0.5 F1000     ; wipe slower and bury noz in cleanish area
G1 Z10                       ; raise z
G28 X0 Y0                    ; home x and y
M109 R140                    ; set to probing temp
M204 S300                    ; Set probing acceleration
G29                          ; Probe
M204 S2000                   ; Restore standard acceleration
G1 X5 Y15 Z10 F5000          ; get out the way
G4 S1                        ; pause
M400                         ; clear buffer
M109 R205    ; set extruder temp and wait
G4 S15                       ; wait for bed to temp up
G1 Z2 E0 F75                 ; extrude filament back into nozzle
M140 S60; get bed temping up during first layer

;Layer count: 37
;LAYER:0
M107
G0 F10500 X80.001 Y84.392 Z0.425
;TYPE:SKIRT
G1 F900 X64.334 Y100.059 E0.92255
G1 X95.669 Y100.059 E2.22728
G1 X80.001 Y84.392 E3.14986
G0 F10500 X80.001 Y83.508
G1 F900 X62.825 Y100.684 E4.16126
G1 X97.178 Y100.684 E5.59165
G1 X80.001 Y83.508 E6.60309
G0 F10500 X80.001 Y82.624
G1 F900 X61.317 Y101.309 E7.70333
G1 X98.686 Y101.309 E9.25929
G1 X80.001 Y82.624 E10.35956
G0 F10500 X80.001 Y81.740
G1 F900 X59.807 Y101.934 E11.54868
G1 X100.196 Y101.934 E13.23040
G1 X80.001 Y81.740 E14.41955
G0 F10500 X80.001 Y80.856
G1 F900 X54.807 Y106.050 E15.90310
G1 X50.564 Y104.293 E16.09432
G1 X50.564 Y78.578 E17.16504
G1 X80.000 Y49.143 E18.89834
G1 X109.436 Y78.578 E20.63165
G1 X109.436 Y104.290 E21.70225
G1 X105.193 Y106.047 E21.89346
G1 X80.001 Y80.856 E23.37686
G0 F10500 X80.001 Y79.972
G1 F900 X54.661 Y105.313 E24.86904
G1 X51.189 Y103.875 E25.02551
G1 X51.189 Y78.837 E26.06805
G1 X80.000 Y50.027 E27.76455
G1 X108.811 Y78.837 E29.46106
G1 X108.811 Y103.872 E30.50346
G1 X105.339 Y105.310 E30.65994
G1 X80.001 Y79.972 E32.15196
G0 F10500 X80.001 Y79.088
G1 F900 X54.514 Y104.576 E33.65279
G1 X51.814 Y103.457 E33.77449
G1 X51.814 Y79.096 E34.78883
G1 X80.000 Y50.911 E36.44853
G1 X108.186 Y79.096 E38.10824
G1 X108.186 Y103.454 E39.12245
G1 X105.486 Y104.573 E39.24415
G1 X80.001 Y79.088 E40.74483
G0 F10500 X80.001 Y78.206
G1 F900 X54.367 Y103.839 E42.25426
G1 X52.439 Y103.040 E42.34116
G1 X52.439 Y79.355 E43.32735
G1 X80.000 Y51.795 E44.95025
G1 X107.561 Y79.355 E46.57315
G1 X107.561 Y103.037 E47.55922
G1 X105.633 Y103.836 E47.64612
G1 X80.001 Y78.206 E49.15540
G0 F10500 X80.001 Y77.322
G1 F900 X54.221 Y103.101 E50.67342
G1 X53.064 Y102.622 E50.72556
G1 X53.064 Y79.614 E51.68357
G1 X80.000 Y52.679 E53.26967
G1 X106.936 Y79.614 E54.85576
G1 X106.936 Y102.619 E55.81364
G1 X105.779 Y103.098 E55.86578
G1 X80.001 Y77.322 E57.38366
G0 F10500 X80.001 Y76.438
G1 F900 X54.074 Y102.364 E58.91034
G1 X53.689 Y102.204 E58.92770
G1 X53.689 Y79.873 E59.85752
G1 X80.000 Y53.563 E61.40681
G1 X106.311 Y79.873 E62.95610
G1 X106.311 Y102.201 E63.88579
G1 X105.926 Y102.361 E63.90315
G1 X80.001 Y76.438 E65.42969
G0 F10500 X80.000 Y48.259
G1 F900 X110.061 Y78.319 E67.19980
G1 X110.061 Y104.707 E68.29854
G1 X105.046 Y106.784 E68.52456
G1 X104.214 Y105.952 E68.57355
G1 X104.241 Y105.999 E68.57581
G1 X102.948 Y108.234 E68.68332
G1 X102.617 Y108.810 E68.71098
G1 X84.184 Y140.814 E70.24878
G1 X83.835 Y141.418 E70.27783
G1 X80.225 Y147.677 E70.57868
G1 X57.420 Y108.856 E72.45338
G1 X57.091 Y108.297 E72.48039
G1 X55.755 Y106.021 E72.59028
G1 X55.802 Y105.939 E72.59421
G1 X54.954 Y106.787 E72.64415
G1 X49.939 Y104.710 E72.87016
G1 X49.939 Y78.319 E73.96903
G1 X80.000 Y48.259 E75.73914
G0 F10500 X80.000 Y47.376
G1 F900 X110.686 Y78.061 E77.54605
G1 X110.686 Y105.125 E78.67294
G1 X104.899 Y107.522 E78.93375
G1 X104.381 Y107.004 E78.96426
G1 X103.489 Y108.547 E79.03847
G1 X103.159 Y109.122 E79.06607
G1 X84.725 Y141.126 E80.60390
G1 X84.376 Y141.731 E80.63298
G1 X80.230 Y148.920 E80.97853
G1 X56.884 Y109.178 E82.89770
G1 X56.552 Y108.614 E82.92495
G1 X55.612 Y107.014 E83.00222
G1 X55.101 Y107.525 E83.03231
G1 X49.314 Y105.128 E83.29312
G1 X49.314 Y78.061 E84.42013
G1 X80.000 Y47.376 E86.22705
G0 F10500 X80.000 Y46.492
G1 F900 X111.311 Y77.802 E88.07076
G1 X111.311 Y105.542 E89.22580
G1 X104.753 Y108.259 E89.52137
G1 X104.515 Y108.021 E89.53538
G1 X104.030 Y108.860 E89.57574
G1 X103.701 Y109.433 E89.60325
G1 X85.267 Y141.438 E91.14111
G1 X84.918 Y142.043 E91.17019
G1 X80.235 Y150.162 E91.56045
G1 X56.342 Y109.489 E93.52459
G1 X56.013 Y108.931 E93.55156
G1 X55.482 Y108.027 E93.59521
G1 X55.247 Y108.262 E93.60905
G1 X48.689 Y105.545 E93.90462
G1 X48.689 Y77.802 E95.05978
G1 X80.000 Y46.492 E96.90350
G0 F10500 X80.000 Y45.608
G1 F900 X111.936 Y77.543 E98.78402
G1 X111.936 Y105.960 E99.96725
G1 X104.695 Y108.959 E100.29358
G1 X104.571 Y109.173 E100.30388
G1 X104.242 Y109.745 E100.33136
G1 X85.808 Y141.750 E101.86922
G1 X85.459 Y142.356 E101.89834
G1 X80.240 Y151.404 E102.33326
G1 X55.803 Y109.805 E104.34211
G1 X55.474 Y109.247 E104.36908
G1 X55.307 Y108.963 E104.38280
G1 X48.064 Y105.963 E104.70923
G1 X48.064 Y77.543 E105.89258
G1 X80.000 Y45.608 E107.77310
G0 F10500 X101.535 Y102.559
G1 F900 X103.519 Y105.998 E107.93841
G1 X102.407 Y107.921 E108.03090
G1 X102.075 Y108.499 E108.05866
G1 X83.643 Y140.502 E109.59641
G1 X80.219 Y146.433 E109.88156
G1 X57.959 Y108.539 E111.71148
G1 X57.629 Y107.980 E111.73851
G1 X56.477 Y106.017 E111.83328
G1 X58.458 Y102.559 E111.99922
G1 X101.535 Y102.559 E113.79286
G0 F10500 X101.174 Y103.184
G1 F900 X102.797 Y105.998 E113.92812
G1 X101.866 Y107.608 E114.00556
G1 X101.534 Y108.187 E114.03335
G1 X83.101 Y140.190 E115.57112
G1 X80.215 Y145.191 E115.81153
G1 X58.497 Y108.222 E117.59682
G1 X58.168 Y107.663 E117.62382
G1 X57.200 Y106.013 E117.70348
G1 X58.820 Y103.184 E117.83922
G1 X101.174 Y103.184 E119.60275
G0 F10500 X100.813 Y103.809
G1 F900 X102.076 Y105.998 E119.70798
G1 X101.325 Y107.295 E119.77038
G1 X100.992 Y107.875 E119.79823
G1 X82.560 Y139.877 E121.33594
G1 X80.210 Y143.949 E121.53170
G1 X59.036 Y107.906 E123.27227
G1 X59.037 Y107.906 E123.27231
G1 X58.707 Y107.347 E123.29934
G1 X57.922 Y106.009 E123.36393
G1 X59.182 Y103.809 E123.46949
G1 X100.813 Y103.809 E125.20292
G0 F10500 X100.452 Y104.434
G1 F900 X101.354 Y105.997 E125.27806
G1 X100.784 Y106.982 E125.32545
G1 X100.450 Y107.564 E125.35339
G1 X82.018 Y139.565 E126.89107
G1 X80.205 Y142.707 E127.04211
G1 X59.575 Y107.589 E128.73799
G1 X59.246 Y107.030 E128.76500
G1 X58.645 Y106.006 E128.81444
G1 X59.545 Y104.434 E128.88986
G1 X100.452 Y104.434 E130.59314
G0 F10500 X100.091 Y105.059
G1 F900 X100.632 Y105.997 E130.63823
G1 X100.244 Y106.667 E130.67047
G1 X100.245 Y106.667 E130.67051
G1 X99.908 Y107.252 E130.69862
G1 X80.201 Y141.466 E132.34264
G1 X60.114 Y107.273 E133.99386
G1 X59.784 Y106.713 E134.02093
G1 X59.367 Y106.002 E134.05525
G1 X59.907 Y105.059 E134.10049
G1 X100.091 Y105.059 E135.77367
G0 F10500 X99.730 Y105.684
G1 F900 X99.910 Y105.996 E135.78867
G1 X80.195 Y140.223 E137.43333
G1 X60.089 Y105.998 E139.08610
G1 X60.269 Y105.684 E139.10117
G1 X99.730 Y105.684 E140.74424
G1 F600 E138.99424
G1 Z0.525
G0 F10500 X105.062 Y99.730
;TYPE:WALL-INNER
G1 Z0.425
G1 F600 E140.74424
G1 F900 X80.001 Y74.671 E142.21990
G1 X54.938 Y99.733 E143.69571
G1 X54.938 Y80.391 E144.50107
G1 X80.000 Y55.330 E145.97681
G1 X105.062 Y80.391 E147.45256
G1 X105.062 Y99.730 E148.25779
G1 F600 E146.50779
G1 Z0.525
G0 F10500 X105.687 Y101.239
;TYPE:WALL-OUTER
G1 Z0.425
G1 F600 E148.25779
G1 F900 X80.001 Y75.555 E149.77025
G1 X54.313 Y101.242 E151.28286
G1 X54.313 Y80.132 E152.16184
G1 X80.000 Y54.446 E153.67439
G1 X105.687 Y80.132 E155.18694
G1 X105.687 Y101.239 E156.06579
G1 F600 E154.31579
G1 Z0.525
G0 F10500 X104.799 Y99.055
;TYPE:SKIN
G1 Z0.425
G1 F600 E156.06579
G1 F900 X70.691 Y64.947 E158.07424
G0 F10500 X70.249 Y65.388
G1 F900 X79.611 Y74.750 E158.62552
G0 F10500 X79.169 Y75.192
G1 F900 X69.807 Y65.830 E159.17680
G0 F10500 X69.365 Y66.272
G1 F900 X78.727 Y75.634 E159.72808
G0 F10500 X78.285 Y76.076
G1 F900 X68.923 Y66.714 E160.27936
G0 F10500 X68.481 Y67.156
G1 F900 X77.843 Y76.518 E160.83064
G0 F10500 X77.401 Y76.960
G1 F900 X68.039 Y67.598 E161.38192
G0 F10500 X67.597 Y68.040
G1 F900 X76.959 Y77.402 E161.93320
G0 F10500 X76.517 Y77.843
G1 F900 X67.156 Y68.482 E162.48442
G0 F10500 X66.714 Y68.924
G1 F900 X76.075 Y78.285 E163.03565
G0 F10500 X75.633 Y78.727
G1 F900 X66.272 Y69.366 E163.58687
G0 F10500 X65.830 Y69.808
G1 F900 X75.191 Y79.169 E164.13809
G0 F10500 X74.749 Y79.611
G1 F900 X65.388 Y70.250 E164.68931
G0 F10500 X64.946 Y70.692
G1 F900 X74.307 Y80.053 E165.24053
G0 F10500 X73.865 Y80.495
G1 F900 X64.504 Y71.134 E165.79176
G0 F10500 X64.062 Y71.576
G1 F900 X73.423 Y80.937 E166.34298
G0 F10500 X72.981 Y81.379
G1 F900 X63.620 Y72.018 E166.89420
G0 F10500 X63.178 Y72.460
G1 F900 X72.539 Y81.821 E167.44542
G0 F10500 X72.098 Y82.263
G1 F900 X62.736 Y72.902 E167.99667
G0 F10500 X62.294 Y73.343
G1 F900 X71.656 Y82.705 E168.54796
G0 F10500 X71.214 Y83.147
G1 F900 X61.852 Y73.785 E169.09924
G0 F10500 X61.410 Y74.227
G1 F900 X70.772 Y83.589 E169.65052
G0 F10500 X70.330 Y84.031
G1 F900 X60.968 Y74.669 E170.20180
G0 F10500 X60.526 Y75.111
G1 F900 X69.888 Y84.473 E170.75308
G0 F10500 X69.446 Y84.915
G1 F900 X60.084 Y75.553 E171.30436
G0 F10500 X71.133 Y64.505
G1 F900 X104.842 Y98.213 E173.28928
G0 F10500 X104.842 Y97.329
G1 F900 X71.575 Y64.063 E175.24818
G0 F10500 X72.017 Y63.621
G1 F900 X104.842 Y96.445 E177.18105
G0 F10500 X104.842 Y95.561
G1 F900 X72.459 Y63.179 E179.08789
G0 F10500 X72.901 Y62.737
G1 F900 X104.842 Y94.678 E180.96874
G0 F10500 X104.842 Y93.794
G1 F900 X73.343 Y62.295 E182.82355
G0 F10500 X73.785 Y61.853
G1 F900 X104.842 Y92.910 E184.65234
G0 F10500 X104.842 Y92.026
G1 F900 X74.227 Y61.411 E186.45511
G0 F10500 X74.669 Y60.969
G1 F900 X104.842 Y91.142 E188.23184
G0 F10500 X104.842 Y90.258
G1 F900 X75.111 Y60.527 E189.98255
G0 F10500 X75.552 Y60.085
G1 F900 X104.842 Y89.374 E191.70726
G0 F10500 X104.842 Y88.490
G1 F900 X75.994 Y59.643 E193.40594
G0 F10500 X76.436 Y59.201
G1 F900 X104.842 Y87.606 E195.07860
G0 F10500 X104.842 Y86.723
G1 F900 X76.878 Y58.759 E196.72526
G0 F10500 X77.320 Y58.317
G1 F900 X104.842 Y85.839 E198.34589
G0 F10500 X104.842 Y84.955
G1 F900 X77.762 Y57.875 E199.94050
G0 F10500 X78.204 Y57.434
G1 F900 X104.842 Y84.071 E201.50904
G0 F10500 X104.842 Y83.187
G1 F900 X78.646 Y56.992 E203.05156
G0 F10500 X79.088 Y56.550
G1 F900 X104.842 Y82.303 E204.56806
G0 F10500 X104.842 Y81.419
G1 F900 X79.530 Y56.108 E206.05852
G0 F10500 X79.972 Y55.666
G1 F900 X104.842 Y80.535 E207.52296
G0 F10500 X80.001 Y74.912
G0 X69.004 Y85.356
G1 F900 X59.643 Y75.995 E208.07419
G0 F10500 X59.201 Y76.437
G1 F900 X68.562 Y85.798 E208.62541
G0 F10500 X68.120 Y86.240
G1 F900 X58.759 Y76.879 E209.17663
G0 F10500 X58.317 Y77.321
G1 F900 X67.678 Y86.682 E209.72785
G0 F10500 X67.235 Y87.124
G1 F900 X57.875 Y77.763 E210.27905
G0 F10500 X57.433 Y78.205
G1 F900 X66.794 Y87.565 E210.83024
G0 F10500 X66.352 Y88.007
G1 F900 X56.991 Y78.647 E211.38143
G0 F10500 X56.549 Y79.089
G1 F900 X65.910 Y88.449 E211.93262
G0 F10500 X65.468 Y88.891
G1 F900 X56.107 Y79.531 E212.48382
G0 F10500 X55.665 Y79.973
G1 F900 X65.026 Y89.333 E213.03501
G0 F10500 X64.584 Y89.775
G1 F900 X55.223 Y80.415 E213.58620
G0 F10500 X55.157 Y81.232
G1 F900 X64.142 Y90.217 E214.11528
G0 F10500 X63.700 Y90.659
G1 F900 X55.157 Y82.116 E214.61834
G0 F10500 X55.157 Y83.000
G1 F900 X63.258 Y91.101 E215.09536
G0 F10500 X62.816 Y91.543
G1 F900 X55.157 Y83.884 E215.54636
G0 F10500 X55.157 Y84.767
G1 F900 X62.374 Y91.985 E215.97137
G0 F10500 X61.932 Y92.427
G1 F900 X55.157 Y85.651 E216.37034
G0 F10500 X55.157 Y86.535
G1 F900 X61.490 Y92.869 E216.74329
G0 F10500 X61.048 Y93.311
G1 F900 X55.157 Y87.419 E217.09021
G0 F10500 X55.157 Y88.303
G1 F900 X60.606 Y93.753 E217.41110
G0 F10500 X60.164 Y94.195
G1 F900 X55.157 Y89.187 E217.70597
G0 F10500 X55.157 Y90.071
G1 F900 X59.722 Y94.637 E217.97481
G0 F10500 X59.281 Y95.078
G1 F900 X55.157 Y90.955 E218.21762
G0 F10500 X55.157 Y91.839
G1 F900 X58.839 Y95.520 E218.43441
G0 F10500 X58.397 Y95.962
G1 F900 X55.157 Y92.722 E218.62519
G0 F10500 X55.157 Y93.606
G1 F900 X57.955 Y96.404 E218.78995
G0 F10500 X57.513 Y96.846
G1 F900 X55.157 Y94.490 E218.92869
G0 F10500 X55.157 Y95.374
G1 F900 X57.071 Y97.288 E219.04139
G0 F10500 X56.629 Y97.730
G1 F900 X55.157 Y96.258 E219.12807
G0 F10500 X55.157 Y97.142
G1 F900 X56.187 Y98.172 E219.18872
G0 F10500 X55.745 Y98.614
G1 F900 X55.157 Y98.468 E219.22335
G1 X55.303 Y99.056 E219.24858
G1 F600 E217.49858
G1 Z0.525
G0 F10500 X62.088 Y106.933
;TYPE:WALL-INNER
G1 Z0.425
G1 F600 E219.24858
G1 F900 X97.929 Y106.933 E220.74092
G1 X80.185 Y137.739 E222.22119
G1 X62.088 Y106.933 E223.70884
G0 F10500 X60.995 Y106.308
;TYPE:WALL-OUTER
G1 F900 X99.010 Y106.308 E225.29171
G1 X80.190 Y138.983 E226.86177
G1 X60.995 Y106.308 E228.43968
G1 F600 E226.68968
G1 Z0.525
G0 F10500 X62.554 Y107.191
;TYPE:SKIN
G1 Z0.425
G1 F600 E228.43968
G1 F900 X84.746 Y129.382 E229.74642
G0 F10500 X85.069 Y128.822
G1 F900 X63.398 Y107.151 E231.02252
G0 F10500 X64.282 Y107.151
G1 F900 X85.391 Y128.260 E232.26552
G0 F10500 X85.714 Y127.699
G1 F900 X65.166 Y107.151 E233.47549
G0 F10500 X66.050 Y107.151
G1 F900 X86.037 Y127.139 E234.65245
G0 F10500 X86.361 Y126.578
G1 F900 X66.934 Y107.151 E235.79641
G0 F10500 X67.817 Y107.151
G1 F900 X86.684 Y126.017 E236.90736
G0 F10500 X87.007 Y125.457
G1 F900 X68.701 Y107.151 E237.98531
G0 F10500 X69.585 Y107.151
G1 F900 X87.329 Y124.895 E239.03016
G0 F10500 X87.652 Y124.334
G1 F900 X70.469 Y107.151 E240.04198
G0 F10500 X71.353 Y107.151
G1 F900 X87.976 Y123.774 E241.02083
G0 F10500 X88.299 Y123.213
G1 F900 X72.237 Y107.151 E241.96664
G0 F10500 X73.121 Y107.151
G1 F900 X88.622 Y122.652 E242.87941
G0 F10500 X88.945 Y122.091
G1 F900 X74.005 Y107.151 E243.75916
G0 F10500 X74.888 Y107.151
G1 F900 X89.268 Y121.531 E244.60592
G0 F10500 X89.591 Y120.969
G1 F900 X75.772 Y107.151 E245.41962
G0 F10500 X76.656 Y107.151
G1 F900 X89.914 Y120.408 E246.20029
G0 F10500 X84.422 Y129.943
G1 F900 X63.665 Y109.185 E247.42260
G0 F10500 X64.923 Y111.328
G1 F900 X84.099 Y130.504 E248.55177
G0 F10500 X83.776 Y131.065
G1 F900 X66.182 Y113.470 E249.58782
G0 F10500 X67.441 Y115.613
G1 F900 X83.453 Y131.625 E250.53069
G0 F10500 X83.130 Y132.186
G1 F900 X68.699 Y117.755 E251.38046
G0 F10500 X69.958 Y119.898
G1 F900 X82.807 Y132.747 E252.13707
G0 F10500 X82.484 Y133.308
G1 F900 X71.216 Y122.040 E252.80059
G0 F10500 X72.475 Y124.183
G1 F900 X82.161 Y133.869 E253.37095
G0 F10500 X81.838 Y134.430
G1 F900 X73.734 Y126.326 E253.84815
G0 F10500 X74.992 Y128.468
G1 F900 X81.515 Y134.990 E254.23223
G0 F10500 X81.192 Y135.551
G1 F900 X76.251 Y130.611 E254.52315
G0 F10500 X77.510 Y132.753
G1 F900 X80.868 Y136.112 E254.72091
G0 F10500 X80.546 Y136.673
G1 F900 X78.768 Y134.896 E254.82558
G0 F10500 X80.027 Y137.038
G1 F900 X80.223 Y137.234 E254.83712
G0 F10500 X90.237 Y119.848
G1 F900 X77.540 Y107.151 E255.58479
G0 F10500 X78.424 Y107.151
G1 F900 X90.560 Y119.287 E256.29941
G0 F10500 X90.883 Y118.726
G1 F900 X79.308 Y107.151 E256.98101
G0 F10500 X80.192 Y107.151
G1 F900 X91.206 Y118.166 E257.62960
G0 F10500 X91.530 Y117.605
G1 F900 X81.076 Y107.151 E258.24518
G0 F10500 X81.960 Y107.151
G1 F900 X91.852 Y117.043 E258.82767
G0 F10500 X92.175 Y116.483
G1 F900 X82.843 Y107.151 E259.37718
G0 F10500 X83.727 Y107.151
G1 F900 X92.498 Y115.922 E259.89366
G0 F10500 X92.821 Y115.361
G1 F900 X84.611 Y107.151 E260.37711
G0 F10500 X85.495 Y107.151
G1 F900 X93.145 Y114.800 E260.82755
G0 F10500 X93.468 Y114.240
G1 F900 X86.379 Y107.151 E261.24498
G0 F10500 X87.263 Y107.151
G1 F900 X93.790 Y113.678 E261.62933
G0 F10500 X94.113 Y113.117
G1 F900 X88.147 Y107.151 E261.98063
G0 F10500 X89.031 Y107.151
G1 F900 X94.436 Y112.557 E262.29894
G0 F10500 X94.760 Y111.996
G1 F900 X89.914 Y107.151 E262.58426
G0 F10500 X90.798 Y107.151
G1 F900 X95.083 Y111.435 E262.83656
G0 F10500 X95.406 Y110.875
G1 F900 X91.682 Y107.151 E263.05584
G0 F10500 X92.566 Y107.151
G1 F900 X95.729 Y110.314 E263.24210
G0 F10500 X96.051 Y109.752
G1 F900 X93.450 Y107.151 E263.39526
G0 F10500 X94.334 Y107.151
G1 F900 X96.375 Y109.192 E263.51544
G0 F10500 X96.698 Y108.631
G1 F900 X95.218 Y107.151 E263.60259
G0 F10500 X96.102 Y107.151
G1 F900 X97.021 Y108.070 E263.65671
G0 F10500 X97.344 Y107.509
G1 F900 X96.986 Y107.151 E263.67779
;LAYER:1
M106 S255
G1 F600 E261.92779
G1 Z0.525
G0 F10500 X105.249 Y100.183 Z0.675
;TYPE:WALL-INNER
G1 Z0.675
G1 F600 E263.67779
G1 F1140 X80.001 Y74.935 E264.37742
G1 X54.751 Y100.186 E265.07713
G1 X54.751 Y80.312 E265.46655
G1 X80.000 Y55.064 E266.16620
G1 X105.249 Y80.313 E266.86586
G1 X105.249 Y100.183 E267.25520
G0 F10500 X105.749 Y101.389
;TYPE:WALL-OUTER
G1 F1080 X80.001 Y75.642 E267.96868
G1 X54.251 Y101.392 E268.68223
G1 X54.251 Y80.106 E269.09931
G1 X80.000 Y54.358 E269.81282
G1 X105.616 Y79.973 E270.52264
G1 X105.749 Y80.106 E270.52632
G1 X105.749 Y101.389 E270.94335
G1 F600 E269.19335
G1 Z0.775
G0 F10500 X104.656 Y99.343
;TYPE:SKIN
G1 Z0.675
G1 F600 E270.94335
G1 F1080 X105.073 Y98.927 E270.95489
G0 F10500 X105.073 Y98.219
G1 F1080 X104.303 Y98.989 E270.97623
G0 F10500 X103.949 Y98.636
G1 F1080 X105.073 Y97.512 E271.00737
G0 F10500 X105.073 Y96.805
G1 F1080 X103.596 Y98.282 E271.04830
G0 F10500 X103.242 Y97.929
G1 F1080 X105.073 Y96.098 E271.09904
G0 F10500 X105.073 Y95.391
G1 F1080 X102.888 Y97.575 E271.15957
G0 F10500 X102.535 Y97.222
G1 F1080 X105.073 Y94.684 E271.22990
G0 F10500 X105.073 Y93.977
G1 F1080 X102.181 Y96.868 E271.31003
G0 F10500 X101.828 Y96.515
G1 F1080 X105.073 Y93.270 E271.39995
G0 F10500 X105.073 Y92.563
G1 F1080 X101.474 Y96.161 E271.49966
G0 F10500 X101.121 Y95.808
G1 F1080 X105.073 Y91.855 E271.60919
G0 F10500 X105.073 Y91.148
G1 F1080 X100.767 Y95.454 E271.72851
G0 F10500 X100.414 Y95.100
G1 F1080 X105.073 Y90.441 E271.85762
G0 F10500 X105.073 Y89.734
G1 F1080 X100.060 Y94.747 E271.99653
G0 F10500 X99.707 Y94.393
G1 F1080 X105.073 Y89.027 E272.14522
G0 F10500 X105.073 Y88.320
G1 F1080 X99.353 Y94.040 E272.30373
G0 F10500 X98.999 Y93.686
G1 F1080 X105.073 Y87.613 E272.47203
G0 F10500 X105.073 Y86.906
G1 F1080 X98.646 Y93.333 E272.65012
G0 F10500 X98.292 Y92.979
G1 F1080 X105.073 Y86.199 E272.83802
G0 F10500 X105.073 Y85.492
G1 F1080 X97.939 Y92.626 E273.03570
G0 F10500 X97.585 Y92.272
G1 F1080 X105.073 Y84.784 E273.24320
G0 F10500 X105.073 Y84.077
G1 F1080 X97.232 Y91.918 E273.46048
G0 F10500 X96.878 Y91.565
G1 F1080 X105.073 Y83.370 E273.68757
G0 F10500 X105.073 Y82.663
G1 F1080 X96.525 Y91.211 E273.92444
G0 F10500 X96.171 Y90.858
G1 F1080 X105.073 Y81.956 E274.17112
G0 F10500 X105.073 Y81.249
G1 F1080 X95.817 Y90.504 E274.42759
G0 F10500 X95.464 Y90.151
G1 F1080 X105.073 Y80.542 E274.69386
G0 F10500 X104.798 Y80.110
G1 F1080 X95.110 Y89.797 E274.96231
G0 F10500 X94.757 Y89.444
G1 F1080 X104.444 Y79.756 E275.23075
G0 F10500 X104.091 Y79.403
G1 F1080 X94.403 Y89.090 E275.49920
G0 F10500 X94.050 Y88.736
G1 F1080 X103.737 Y79.049 E275.76763
G0 F10500 X103.383 Y78.696
G1 F1080 X93.696 Y88.383 E276.03606
G0 F10500 X93.343 Y88.029
G1 F1080 X103.030 Y78.342 E276.30450
G0 F10500 X102.676 Y77.988
G1 F1080 X92.989 Y87.676 E276.57294
G0 F10500 X92.635 Y87.322
G1 F1080 X102.323 Y77.635 E276.84139
G0 F10500 X101.969 Y77.281
G1 F1080 X92.282 Y86.969 E277.10984
G0 F10500 X91.928 Y86.615
G1 F1080 X101.616 Y76.928 E277.37828
G0 F10500 X101.262 Y76.574
G1 F1080 X91.575 Y86.262 E277.64673
G0 F10500 X91.221 Y85.908
G1 F1080 X100.909 Y76.221 E277.91517
G0 F10500 X100.555 Y75.867
G1 F1080 X90.868 Y85.554 E278.18361
G0 F10500 X90.514 Y85.201
G1 F1080 X100.201 Y75.514 E278.45204
G0 F10500 X99.848 Y75.160
G1 F1080 X90.161 Y84.847 E278.72047
G0 F10500 X89.807 Y84.494
G1 F1080 X99.494 Y74.806 E278.98892
G0 F10500 X99.141 Y74.453
G1 F1080 X89.453 Y84.140 E279.25736
G0 F10500 X89.100 Y83.787
G1 F1080 X98.787 Y74.099 E279.52581
G0 F10500 X98.434 Y73.746
G1 F1080 X88.746 Y83.433 E279.79425
G0 F10500 X88.393 Y83.080
G1 F1080 X98.080 Y73.392 E280.06270
G0 F10500 X97.727 Y73.039
G1 F1080 X88.039 Y82.726 E280.33115
G0 F10500 X87.686 Y82.372
G1 F1080 X97.373 Y72.685 E280.59958
G0 F10500 X97.020 Y72.332
G1 F1080 X87.332 Y82.019 E280.86803
G0 F10500 X86.979 Y81.665
G1 F1080 X96.666 Y71.978 E281.13646
G0 F10500 X96.312 Y71.624
G1 F1080 X86.625 Y81.312 E281.40490
G0 F10500 X86.271 Y80.958
G1 F1080 X95.959 Y71.271 E281.67335
G0 F10500 X95.605 Y70.917
G1 F1080 X85.918 Y80.605 E281.94180
G0 F10500 X85.564 Y80.251
G1 F1080 X95.252 Y70.564 E282.21024
G0 F10500 X94.898 Y70.210
G1 F1080 X85.211 Y79.898 E282.47869
G0 F10500 X84.857 Y79.544
G1 F1080 X94.545 Y69.857 E282.74713
G0 F10500 X94.191 Y69.503
G1 F1080 X84.504 Y79.191 E283.01558
G0 F10500 X84.150 Y78.837
G1 F1080 X93.838 Y69.150 E283.28403
G0 F10500 X93.484 Y68.796
G1 F1080 X83.797 Y78.483 E283.55246
G0 F10500 X83.443 Y78.130
G1 F1080 X93.130 Y68.442 E283.82090
G0 F10500 X92.777 Y68.089
G1 F1080 X83.089 Y77.776 E284.08935
G0 F10500 X82.736 Y77.423
G1 F1080 X92.423 Y67.735 E284.35780
G0 F10500 X92.070 Y67.382
G1 F1080 X82.382 Y77.069 E284.62624
G0 F10500 X82.029 Y76.716
G1 F1080 X91.716 Y67.028 E284.89469
G0 F10500 X91.363 Y66.675
G1 F1080 X81.675 Y76.362 E285.16314
G0 F10500 X81.322 Y76.009
G1 F1080 X91.009 Y66.321 E285.43158
G0 F10500 X90.656 Y65.968
G1 F1080 X80.968 Y75.655 E285.70003
G0 F10500 X80.615 Y75.301
G1 F1080 X90.302 Y65.614 E285.96846
G0 F10500 X89.948 Y65.261
G1 F1080 X80.261 Y74.948 E286.23689
G0 F10500 X89.595 Y64.907
G1 F1080 X54.926 Y99.576 E287.19759
G0 F10500 X54.926 Y98.869
G1 F1080 X89.241 Y64.553 E288.14849
G0 F10500 X88.888 Y64.200
G1 F1080 X54.926 Y98.161 E289.08958
G0 F10500 X54.926 Y97.454
G1 F1080 X88.534 Y63.846 E290.02088
G0 F10500 X88.181 Y63.493
G1 F1080 X54.926 Y96.747 E290.94238
G0 F10500 X54.926 Y96.040
G1 F1080 X87.827 Y63.139 E291.85409
G0 F10500 X87.474 Y62.786
G1 F1080 X54.926 Y95.333 E292.75600
G0 F10500 X54.926 Y94.626
G1 F1080 X87.120 Y62.432 E293.64811
G0 F10500 X86.766 Y62.079
G1 F1080 X54.926 Y93.919 E294.53042
G0 F10500 X54.926 Y93.212
G1 F1080 X86.413 Y61.725 E295.40294
G0 F10500 X86.059 Y61.371
G1 F1080 X54.926 Y92.505 E296.26567
G0 F10500 X54.926 Y91.798
G1 F1080 X85.706 Y61.018 E297.11860
G0 F10500 X85.352 Y60.664
G1 F1080 X54.926 Y91.090 E297.96172
G0 F10500 X54.926 Y90.383
G1 F1080 X84.999 Y60.311 E298.79504
G0 F10500 X84.645 Y59.957
G1 F1080 X54.926 Y89.676 E299.61857
G0 F10500 X54.926 Y88.969
G1 F1080 X84.292 Y59.604 E300.43231
G0 F10500 X83.938 Y59.250
G1 F1080 X54.926 Y88.262 E301.23625
G0 F10500 X54.926 Y87.555
G1 F1080 X83.584 Y58.897 E302.03038
G0 F10500 X83.231 Y58.543
G1 F1080 X54.926 Y86.848 E302.81473
G0 F10500 X54.926 Y86.141
G1 F1080 X82.877 Y58.189 E303.58928
G0 F10500 X82.524 Y57.836
G1 F1080 X54.926 Y85.434 E304.35403
G0 F10500 X54.926 Y84.726
G1 F1080 X82.170 Y57.482 E305.10898
G0 F10500 X81.817 Y57.129
G1 F1080 X54.926 Y84.019 E305.85413
G0 F10500 X54.926 Y83.312
G1 F1080 X81.463 Y56.775 E306.58949
G0 F10500 X81.110 Y56.422
G1 F1080 X54.926 Y82.605 E307.31505
G0 F10500 X54.926 Y81.898
G1 F1080 X80.756 Y56.068 E308.03081
G0 F10500 X80.402 Y55.715
G1 F1080 X54.926 Y81.191 E308.73676
G0 F10500 X54.926 Y80.484
G1 F1080 X80.049 Y55.361 E309.43294
G1 F600 E307.68294
G1 Z0.775
G0 F10500 X98.253 Y106.746
;TYPE:WALL-INNER
G1 Z0.675
G1 F600 E309.43294
G1 F1140 X80.407 Y137.728 E310.13352
G1 X80.187 Y138.111 E310.14217
G1 X61.761 Y106.746 E310.85495
G1 X98.253 Y106.746 E311.56999
G0 F10500 X99.117 Y106.246
;TYPE:WALL-OUTER
G1 F1080 X80.191 Y139.105 E312.31300
G1 X60.887 Y106.246 E313.05974
G1 X99.117 Y106.246 E313.80883
G0 F10500 X97.787 Y106.920
;TYPE:SKIN
G1 F1080 X75.286 Y129.421 E314.43234
G0 F10500 X75.547 Y129.866
G1 F1080 X97.210 Y108.204 E315.03262
G0 F10500 X97.080 Y106.920
G1 F1080 X75.024 Y128.975 E315.64379
G0 F10500 X74.763 Y128.530
G1 F1080 X96.372 Y106.920 E316.24261
G0 F10500 X95.665 Y106.920
G1 F1080 X74.501 Y128.084 E316.82907
G0 F10500 X74.239 Y127.639
G1 F1080 X94.958 Y106.920 E317.40321
G0 F10500 X94.251 Y106.920
G1 F1080 X73.978 Y127.193 E317.96498
G0 F10500 X73.716 Y126.748
G1 F1080 X93.544 Y106.920 E318.51443
G0 F10500 X92.837 Y106.920
G1 F1080 X73.454 Y126.302 E319.05153
G0 F10500 X73.193 Y125.857
G1 F1080 X92.130 Y106.920 E319.57628
G0 F10500 X91.423 Y106.920
G1 F1080 X72.930 Y125.412 E320.08872
G0 F10500 X72.669 Y124.966
G1 F1080 X90.716 Y106.920 E320.58880
G0 F10500 X90.009 Y106.920
G1 F1080 X72.407 Y124.521 E321.07655
G0 F10500 X72.146 Y124.076
G1 F1080 X89.301 Y106.920 E321.55194
G0 F10500 X88.594 Y106.920
G1 F1080 X71.884 Y123.630 E322.01498
G0 F10500 X71.622 Y123.185
G1 F1080 X87.887 Y106.920 E322.46569
G0 F10500 X87.180 Y106.920
G1 F1080 X71.361 Y122.739 E322.90405
G0 F10500 X71.099 Y122.294
G1 F1080 X86.473 Y106.920 E323.33007
G0 F10500 X85.766 Y106.920
G1 F1080 X70.837 Y121.848 E323.74375
G0 F10500 X70.576 Y121.403
G1 F1080 X85.059 Y106.920 E324.14508
G0 F10500 X84.352 Y106.920
G1 F1080 X70.314 Y120.957 E324.53406
G0 F10500 X70.053 Y120.512
G1 F1080 X83.645 Y106.920 E324.91071
G0 F10500 X82.937 Y106.920
G1 F1080 X69.791 Y120.066 E325.27499
G0 F10500 X75.809 Y130.312
G1 F1080 X96.249 Y109.872 E325.84139
G0 F10500 X95.289 Y111.539
G1 F1080 X76.071 Y130.757 E326.37394
G0 F10500 X76.332 Y131.202
G1 F1080 X94.328 Y113.207 E326.87260
G0 F10500 X93.367 Y114.875
G1 F1080 X76.595 Y131.647 E327.33736
G0 F10500 X76.856 Y132.093
G1 F1080 X92.407 Y116.542 E327.76829
G0 F10500 X91.446 Y118.210
G1 F1080 X77.118 Y132.538 E328.16533
G0 F10500 X77.380 Y132.984
G1 F1080 X90.486 Y119.877 E328.52852
G0 F10500 X82.230 Y106.920
G1 F1080 X69.529 Y119.621 E328.88047
G0 F10500 X69.267 Y119.176
G1 F1080 X81.523 Y106.920 E329.22009
G0 F10500 X80.816 Y106.920
G1 F1080 X69.005 Y118.731 E329.54738
G0 F10500 X68.744 Y118.285
G1 F1080 X80.109 Y106.920 E329.86231
G0 F10500 X79.402 Y106.920
G1 F1080 X68.482 Y117.840 E330.16491
G0 F10500 X68.220 Y117.394
G1 F1080 X78.695 Y106.920 E330.45516
G0 F10500 X77.988 Y106.920
G1 F1080 X67.959 Y116.949 E330.73307
G0 F10500 X67.697 Y116.503
G1 F1080 X77.281 Y106.920 E330.99864
G0 F10500 X76.574 Y106.920
G1 F1080 X67.436 Y116.058 E331.25185
G0 F10500 X67.174 Y115.612
G1 F1080 X75.866 Y106.920 E331.49271
G0 F10500 X75.159 Y106.920
G1 F1080 X66.912 Y115.167 E331.72124
G0 F10500 X66.651 Y114.721
G1 F1080 X74.452 Y106.920 E331.93741
G0 F10500 X73.745 Y106.920
G1 F1080 X66.389 Y114.276 E332.14125
G0 F10500 X66.127 Y113.831
G1 F1080 X73.038 Y106.920 E332.33276
G0 F10500 X72.331 Y106.920
G1 F1080 X65.865 Y113.385 E332.51192
G0 F10500 X65.603 Y112.940
G1 F1080 X71.624 Y106.920 E332.67875
G0 F10500 X70.917 Y106.920
G1 F1080 X65.342 Y112.495 E332.83324
G0 F10500 X65.080 Y112.049
G1 F1080 X70.210 Y106.920 E332.97538
G0 F10500 X69.502 Y106.920
G1 F1080 X64.819 Y111.604 E333.10516
G0 F10500 X64.557 Y111.158
G1 F1080 X68.795 Y106.920 E333.22260
G0 F10500 X68.088 Y106.920
G1 F1080 X64.295 Y110.713 E333.32771
G0 F10500 X64.034 Y110.267
G1 F1080 X67.381 Y106.920 E333.42046
G0 F10500 X66.674 Y106.920
G1 F1080 X63.772 Y109.822 E333.50087
G0 F10500 X63.510 Y109.376
G1 F1080 X65.967 Y106.920 E333.56894
G0 F10500 X65.260 Y106.920
G1 F1080 X63.249 Y108.931 E333.62467
G0 F10500 X62.987 Y108.485
G1 F1080 X64.553 Y106.920 E333.66805
G0 F10500 X63.846 Y106.920
G1 F1080 X62.725 Y108.040 E333.69910
G0 F10500 X62.463 Y107.595
G1 F1080 X62.784 Y106.920 E333.71779
G1 X62.202 Y107.150 E333.73005
G0 F10500 X77.641 Y133.429
G1 F1080 X89.525 Y121.545 E334.05936
G0 F10500 X88.565 Y123.213
G1 F1080 X77.903 Y133.875 E334.35481
G0 F10500 X78.164 Y134.320
G1 F1080 X87.604 Y124.880 E334.61640
G0 F10500 X86.643 Y126.548
G1 F1080 X78.426 Y134.766 E334.84411
G0 F10500 X78.688 Y135.211
G1 F1080 X85.683 Y128.216 E335.03795
G0 F10500 X84.723 Y129.883
G1 F1080 X78.949 Y135.657 E335.19795
G0 F10500 X79.211 Y136.102
G1 F1080 X83.762 Y131.551 E335.32406
G0 F10500 X82.802 Y133.218
G1 F1080 X79.473 Y136.547 E335.41631
G0 F10500 X79.734 Y136.993
G1 F1080 X81.841 Y134.886 E335.47469
G0 F10500 X80.880 Y136.554
G1 F1080 X79.997 Y137.438 E335.49918
;LAYER:2
G1 F600 E333.74918
G1 Z0.775
G0 F10500 X54.751 Y100.185 Z0.925
;TYPE:WALL-INNER
G1 Z0.925
G1 F600 E335.49918
G1 F1440 X54.751 Y80.312 E335.88857
G1 X80.000 Y55.064 E336.58822
G1 X105.249 Y80.312 E337.28787
G1 X105.249 Y100.183 E337.67723
G1 X80.001 Y74.935 E338.37687
G1 X54.751 Y100.185 E339.07656
G0 F10500 X54.251 Y101.392
;TYPE:WALL-OUTER
G1 F1320 X54.251 Y80.106 E339.49365
G1 X80.000 Y54.358 E340.20715
G1 X105.749 Y80.106 E340.92066
G1 X105.749 Y101.389 E341.33768
G1 X80.001 Y75.642 E342.05116
G1 X54.251 Y101.392 E342.76471
G1 F600 E341.01471
G1 Z1.025
G0 F10500 X55.246 Y99.440
;TYPE:SKIN
G1 Z0.925
G1 F600 E342.76471
G1 F1320 X55.262 Y99.103 E342.77359
G1 X54.925 Y98.413 E342.78864
G0 F10500 X54.925 Y97.705
G1 F1320 X55.953 Y98.733 E342.81713
G0 F10500 X56.306 Y98.379
G1 F1320 X54.925 Y96.998 E342.85539
G0 F10500 X54.925 Y96.291
G1 F1320 X56.660 Y98.026 E342.90347
G0 F10500 X57.014 Y97.672
G1 F1320 X54.925 Y95.584 E342.96135
G0 F10500 X54.925 Y94.877
G1 F1320 X57.367 Y97.319 E343.02901
G0 F10500 X57.721 Y96.965
G1 F1320 X54.925 Y94.170 E343.10648
G0 F10500 X54.925 Y93.463
G1 F1320 X58.074 Y96.611 E343.19373
G0 F10500 X58.428 Y96.258
G1 F1320 X54.925 Y92.756 E343.29078
G0 F10500 X54.925 Y92.049
G1 F1320 X58.781 Y95.904 E343.39762
G0 F10500 X59.135 Y95.551
G1 F1320 X54.925 Y91.341 E343.51428
G0 F10500 X54.925 Y90.634
G1 F1320 X59.488 Y95.197 E343.64073
G0 F10500 X59.842 Y94.844
G1 F1320 X54.925 Y89.927 E343.77698
G0 F10500 X54.925 Y89.220
G1 F1320 X60.196 Y94.490 E343.92303
G0 F10500 X60.549 Y94.137
G1 F1320 X54.925 Y88.513 E344.07887
G0 F10500 X54.925 Y87.806
G1 F1320 X60.903 Y93.783 E344.24451
G0 F10500 X61.256 Y93.430
G1 F1320 X54.925 Y87.099 E344.41995
G0 F10500 X54.925 Y86.392
G1 F1320 X61.610 Y93.076 E344.60518
G0 F10500 X61.963 Y92.722
G1 F1320 X54.925 Y85.685 E344.80019
G0 F10500 X54.925 Y84.977
G1 F1320 X62.317 Y92.369 E345.00503
G0 F10500 X62.670 Y92.015
G1 F1320 X54.925 Y84.270 E345.21965
G0 F10500 X54.925 Y83.563
G1 F1320 X63.024 Y91.662 E345.44407
G0 F10500 X63.377 Y91.308
G1 F1320 X54.925 Y82.856 E345.67828
G0 F10500 X54.925 Y82.149
G1 F1320 X63.731 Y90.955 E345.92230
G0 F10500 X64.085 Y90.601
G1 F1320 X54.925 Y81.442 E346.17612
G0 F10500 X54.925 Y80.735
G1 F1320 X64.438 Y90.248 E346.43973
G0 F10500 X64.792 Y89.894
G1 F1320 X55.104 Y80.207 E346.70817
G0 F10500 X55.458 Y79.853
G1 F1320 X65.145 Y89.540 E346.97661
G0 F10500 X65.499 Y89.187
G1 F1320 X55.811 Y79.500 E347.24505
G0 F10500 X56.165 Y79.146
G1 F1320 X65.852 Y88.833 E347.51348
G0 F10500 X66.206 Y88.480
G1 F1320 X56.519 Y78.792 E347.78193
G0 F10500 X56.872 Y78.439
G1 F1320 X66.559 Y88.126 E348.05036
G0 F10500 X66.913 Y87.773
G1 F1320 X57.226 Y78.085 E348.31881
G0 F10500 X57.579 Y77.732
G1 F1320 X67.267 Y87.419 E348.58726
G0 F10500 X67.620 Y87.066
G1 F1320 X57.933 Y77.378 E348.85570
G0 F10500 X58.286 Y77.025
G1 F1320 X67.974 Y86.712 E349.12415
G0 F10500 X68.327 Y86.358
G1 F1320 X58.640 Y76.671 E349.39258
G0 F10500 X58.993 Y76.318
G1 F1320 X68.681 Y86.005 E349.66103
G0 F10500 X69.034 Y85.651
G1 F1320 X59.347 Y75.964 E349.92946
G0 F10500 X59.701 Y75.610
G1 F1320 X69.388 Y85.298 E350.19790
G0 F10500 X69.741 Y84.944
G1 F1320 X60.054 Y75.257 E350.46634
G0 F10500 X60.408 Y74.903
G1 F1320 X70.095 Y84.591 E350.73478
G0 F10500 X70.449 Y84.237
G1 F1320 X60.761 Y74.550 E351.00323
G0 F10500 X61.115 Y74.196
G1 F1320 X70.802 Y83.884 E351.27167
G0 F10500 X71.156 Y83.530
G1 F1320 X61.468 Y73.843 E351.54012
G0 F10500 X61.822 Y73.489
G1 F1320 X71.509 Y83.176 E351.80855
G0 F10500 X71.863 Y82.823
G1 F1320 X62.175 Y73.136 E352.07700
G0 F10500 X62.529 Y72.782
G1 F1320 X72.216 Y82.469 E352.34543
G0 F10500 X72.570 Y82.116
G1 F1320 X62.883 Y72.428 E352.61388
G0 F10500 X63.236 Y72.075
G1 F1320 X72.923 Y81.762 E352.88231
G0 F10500 X73.277 Y81.409
G1 F1320 X63.590 Y71.721 E353.15076
G0 F10500 X63.943 Y71.368
G1 F1320 X73.631 Y81.055 E353.41920
G0 F10500 X73.984 Y80.702
G1 F1320 X64.297 Y71.014 E353.68765
G0 F10500 X64.650 Y70.661
G1 F1320 X74.338 Y80.348 E353.95609
G0 F10500 X74.691 Y79.994
G1 F1320 X65.004 Y70.307 E354.22453
G0 F10500 X65.357 Y69.954
G1 F1320 X75.045 Y79.641 E354.49297
G0 F10500 X75.398 Y79.287
G1 F1320 X65.711 Y69.600 E354.76141
G0 F10500 X66.064 Y69.246
G1 F1320 X75.752 Y78.934 E355.02987
G0 F10500 X76.105 Y78.580
G1 F1320 X66.418 Y68.893 E355.29830
G0 F10500 X66.772 Y68.539
G1 F1320 X76.459 Y78.227 E355.56674
G0 F10500 X76.813 Y77.873
G1 F1320 X67.125 Y68.186 E355.83519
G0 F10500 X67.479 Y67.832
G1 F1320 X77.166 Y77.520 E356.10364
G0 F10500 X77.520 Y77.166
G1 F1320 X67.832 Y67.479 E356.37208
G0 F10500 X68.186 Y67.125
G1 F1320 X77.873 Y76.813 E356.64053
G0 F10500 X78.227 Y76.459
G1 F1320 X68.539 Y66.772 E356.90897
G0 F10500 X68.893 Y66.418
G1 F1320 X78.580 Y76.105 E357.17741
G0 F10500 X78.934 Y75.752
G1 F1320 X69.246 Y66.064 E357.44587
G0 F10500 X69.600 Y65.711
G1 F1320 X79.287 Y75.398 E357.71430
G0 F10500 X79.641 Y75.045
G1 F1320 X69.954 Y65.357 E357.98274
G0 F10500 X70.307 Y65.004
G1 F1320 X79.994 Y74.691 E358.25118
G0 F10500 X70.661 Y64.650
G1 F1320 X105.073 Y99.062 E359.20475
G0 F10500 X105.073 Y98.355
G1 F1320 X71.014 Y64.297 E360.14853
G0 F10500 X71.368 Y63.943
G1 F1320 X105.073 Y97.648 E361.08252
G0 F10500 X105.073 Y96.941
G1 F1320 X71.721 Y63.590 E362.00671
G0 F10500 X72.075 Y63.236
G1 F1320 X105.073 Y96.234 E362.92110
G0 F10500 X105.073 Y95.527
G1 F1320 X72.428 Y62.883 E363.82570
G0 F10500 X72.782 Y62.529
G1 F1320 X105.073 Y94.820 E364.72050
G0 F10500 X105.073 Y94.113
G1 F1320 X73.136 Y62.175 E365.60551
G0 F10500 X73.489 Y61.822
G1 F1320 X105.073 Y93.405 E366.48070
G0 F10500 X105.073 Y92.698
G1 F1320 X73.843 Y61.468 E367.34610
G0 F10500 X74.196 Y61.115
G1 F1320 X105.073 Y91.991 E368.20171
G0 F10500 X105.073 Y91.284
G1 F1320 X74.550 Y60.761 E369.04752
G0 F10500 X74.903 Y60.408
G1 F1320 X105.073 Y90.577 E369.88353
G0 F10500 X105.073 Y89.870
G1 F1320 X75.257 Y60.054 E370.70975
G0 F10500 X75.610 Y59.701
G1 F1320 X105.073 Y89.163 E371.52617
G0 F10500 X105.073 Y88.456
G1 F1320 X75.964 Y59.347 E372.33280
G0 F10500 X76.318 Y58.993
G1 F1320 X105.073 Y87.749 E373.12963
G0 F10500 X105.073 Y87.042
G1 F1320 X76.671 Y58.640 E373.91667
G0 F10500 X77.025 Y58.286
G1 F1320 X105.073 Y86.334 E374.69389
G0 F10500 X105.073 Y85.627
G1 F1320 X77.378 Y57.933 E375.46132
G0 F10500 X77.732 Y57.579
G1 F1320 X105.073 Y84.920 E376.21896
G0 F10500 X105.073 Y84.213
G1 F1320 X78.085 Y57.226 E376.96680
G0 F10500 X78.439 Y56.872
G1 F1320 X105.073 Y83.506 E377.70484
G0 F10500 X105.073 Y82.799
G1 F1320 X78.792 Y56.519 E378.43309
G0 F10500 X79.146 Y56.165
G1 F1320 X105.073 Y82.092 E379.15154
G0 F10500 X105.073 Y81.385
G1 F1320 X79.500 Y55.811 E379.86020
G0 F10500 X79.853 Y55.458
G1 F1320 X105.073 Y80.678 E380.55906
G1 F600 E378.80906
G1 Z1.025
G0 F10500 X98.252 Y106.746
;TYPE:WALL-INNER
G1 Z0.925
G1 F600 E380.55906
G1 F1440 X80.186 Y138.111 E381.26829
G1 X79.862 Y137.560 E381.28082
G1 X61.760 Y106.746 E381.98107
G1 X98.252 Y106.746 E382.69611
G0 F10500 X99.117 Y106.246
;TYPE:WALL-OUTER
G1 F1320 X80.191 Y139.105 E383.43912
G1 X60.887 Y106.246 E384.18586
G1 X99.117 Y106.246 E384.93495
G1 F600 E383.18495
G1 Z1.025
G0 F10500 X97.739 Y107.285
;TYPE:SKIN
G1 Z0.925
G1 F600 E384.93495
G1 F1320 X97.374 Y106.920 E384.94506
G0 F10500 X96.667 Y106.920
G1 F1320 X97.480 Y107.733 E384.96759
G0 F10500 X97.222 Y108.182
G1 F1320 X95.960 Y106.920 E385.00256
G0 F10500 X95.253 Y106.920
G1 F1320 X96.963 Y108.630 E385.04995
G0 F10500 X96.705 Y109.079
G1 F1320 X94.546 Y106.920 E385.10977
G0 F10500 X93.839 Y106.920
G1 F1320 X96.446 Y109.528 E385.18203
G0 F10500 X96.188 Y109.977
G1 F1320 X93.132 Y106.920 E385.26673
G0 F10500 X92.425 Y106.920
G1 F1320 X95.929 Y110.425 E385.36384
G0 F10500 X95.671 Y110.874
G1 F1320 X91.718 Y106.920 E385.47339
G0 F10500 X91.011 Y106.920
G1 F1320 X95.412 Y111.322 E385.59536
G0 F10500 X95.154 Y111.771
G1 F1320 X90.303 Y106.920 E385.72978
G0 F10500 X89.596 Y106.920
G1 F1320 X94.896 Y112.220 E385.87665
G0 F10500 X94.637 Y112.668
G1 F1320 X88.889 Y106.920 E386.03593
G0 F10500 X88.182 Y106.920
G1 F1320 X94.379 Y113.117 E386.20765
G0 F10500 X94.120 Y113.566
G1 F1320 X87.475 Y106.920 E386.39180
G0 F10500 X86.768 Y106.920
G1 F1320 X93.862 Y114.015 E386.58840
G0 F10500 X93.603 Y114.463
G1 F1320 X86.061 Y106.920 E386.79740
G0 F10500 X85.354 Y106.920
G1 F1320 X93.345 Y114.912 E387.01885
G0 F10500 X93.087 Y115.360
G1 F1320 X84.647 Y106.920 E387.25273
G0 F10500 X83.939 Y106.920
G1 F1320 X92.828 Y115.809 E387.49905
G0 F10500 X92.570 Y116.258
G1 F1320 X83.232 Y106.920 E387.75781
G0 F10500 X82.525 Y106.920
G1 F1320 X92.312 Y116.707 E388.02901
G0 F10500 X92.053 Y117.155
G1 F1320 X81.818 Y106.920 E388.31263
G0 F10500 X81.111 Y106.920
G1 F1320 X91.795 Y117.604 E388.60869
G0 F10500 X91.536 Y118.052
G1 F1320 X80.404 Y106.920 E388.91716
G0 F10500 X79.697 Y106.920
G1 F1320 X91.278 Y118.501 E389.23808
G0 F10500 X91.019 Y118.950
G1 F1320 X78.990 Y106.920 E389.57142
G0 F10500 X78.283 Y106.920
G1 F1320 X90.761 Y119.399 E389.91721
G0 F10500 X90.502 Y119.847
G1 F1320 X77.575 Y106.920 E390.27543
G0 F10500 X76.868 Y106.920
G1 F1320 X90.244 Y120.296 E390.64608
G0 F10500 X89.985 Y120.744
G1 F1320 X76.161 Y106.920 E391.02915
G0 F10500 X75.454 Y106.920
G1 F1320 X89.727 Y121.193 E391.42467
G0 F10500 X89.469 Y121.642
G1 F1320 X74.747 Y106.920 E391.83262
G0 F10500 X74.040 Y106.920
G1 F1320 X89.210 Y122.091 E392.25300
G0 F10500 X88.952 Y122.540
G1 F1320 X73.333 Y106.920 E392.68583
G0 F10500 X72.626 Y106.920
G1 F1320 X88.693 Y122.988 E393.13107
G0 F10500 X88.435 Y123.437
G1 F1320 X71.919 Y106.920 E393.58875
G0 F10500 X71.212 Y106.920
G1 F1320 X88.176 Y123.885 E394.05885
G0 F10500 X87.918 Y124.334
G1 F1320 X70.504 Y106.920 E394.54140
G0 F10500 X69.797 Y106.920
G1 F1320 X87.660 Y124.783 E395.03639
G0 F10500 X87.401 Y125.232
G1 F1320 X69.090 Y106.920 E395.54381
G0 F10500 X68.383 Y106.920
G1 F1320 X87.143 Y125.680 E396.06366
G0 F10500 X86.885 Y126.129
G1 F1320 X67.676 Y106.920 E396.59596
G0 F10500 X66.969 Y106.920
G1 F1320 X86.626 Y126.577 E397.14066
G0 F10500 X86.368 Y127.026
G1 F1320 X66.262 Y106.920 E397.69781
G0 F10500 X65.555 Y106.920
G1 F1320 X86.109 Y127.475 E398.26739
G0 F10500 X85.851 Y127.924
G1 F1320 X64.848 Y106.920 E398.84941
G0 F10500 X64.140 Y106.920
G1 F1320 X85.592 Y128.372 E399.44385
G0 F10500 X85.334 Y128.821
G1 F1320 X63.433 Y106.920 E400.05074
G0 F10500 X62.726 Y106.920
G1 F1320 X85.075 Y129.269 E400.67005
G0 F10500 X84.817 Y129.718
G1 F1320 X62.131 Y107.032 E401.29869
G0 F10500 X63.138 Y108.746
G1 F1320 X84.559 Y130.167 E401.89228
G0 F10500 X84.300 Y130.616
G1 F1320 X64.145 Y110.460 E402.45080
G0 F10500 X65.152 Y112.175
G1 F1320 X84.042 Y131.065 E402.97425
G0 F10500 X83.783 Y131.513
G1 F1320 X66.159 Y113.889 E403.46262
G0 F10500 X67.166 Y115.603
G1 F1320 X83.525 Y131.962 E403.91594
G0 F10500 X83.266 Y132.410
G1 F1320 X68.173 Y117.317 E404.33417
G0 F10500 X69.180 Y119.031
G1 F1320 X83.008 Y132.859 E404.71736
G0 F10500 X82.749 Y133.308
G1 F1320 X70.188 Y120.746 E405.06544
G0 F10500 X71.195 Y122.460
G1 F1320 X82.491 Y133.757 E405.37847
G0 F10500 X82.232 Y134.205
G1 F1320 X72.201 Y124.174 E405.65644
G0 F10500 X73.208 Y125.888
G1 F1320 X81.974 Y134.654 E405.89935
G0 F10500 X81.716 Y135.102
G1 F1320 X74.216 Y127.603 E406.10717
G0 F10500 X75.223 Y129.317
G1 F1320 X81.457 Y135.551 E406.27991
G0 F10500 X81.199 Y135.999
G1 F1320 X76.230 Y131.031 E406.41759
G0 F10500 X77.237 Y132.745
G1 F1320 X80.941 Y136.448 E406.52022
G0 F10500 X80.682 Y136.897
G1 F1320 X78.244 Y134.459 E406.58778
G0 F10500 X79.251 Y136.173
G1 F1320 X80.424 Y137.346 E406.62028
;LAYER:3
G1 F600 E404.87028
G1 Z1.025
G0 F10500 X105.249 Y100.183 Z1.175
;TYPE:WALL-INNER
G1 Z1.175
G1 F600 E406.62028
G1 F1740 X80.001 Y74.935 E407.31992
G1 X54.751 Y100.186 E408.01962
G1 X54.751 Y80.312 E408.40904
G1 X80.000 Y55.064 E409.10869
G1 X105.249 Y80.312 E409.80834
G1 X105.249 Y100.183 E410.19770
G0 F10500 X105.749 Y101.389
;TYPE:WALL-OUTER
G1 F1500 X80.001 Y75.642 E410.91118
G1 X54.251 Y101.392 E411.62473
G1 X54.251 Y80.106 E412.04181
G1 X80.000 Y54.358 E412.75532
G1 X105.749 Y80.106 E413.46882
G1 X105.749 Y101.389 E413.88585
G1 F600 E412.13585
G1 Z1.275
G0 F10500 X104.656 Y99.343
;TYPE:SKIN
G1 Z1.175
G1 F600 E413.88585
G1 F1500 X105.073 Y98.927 E413.89739
G0 F10500 X105.073 Y98.219
G1 F1500 X104.303 Y98.989 E413.91873
G0 F10500 X103.949 Y98.636
G1 F1500 X105.073 Y97.512 E413.94987
G0 F10500 X105.073 Y96.805
G1 F1500 X103.596 Y98.282 E413.99080
G0 F10500 X103.242 Y97.929
G1 F1500 X105.073 Y96.098 E414.04154
G0 F10500 X105.073 Y95.391
G1 F1500 X102.888 Y97.575 E414.10207
G0 F10500 X102.535 Y97.222
G1 F1500 X105.073 Y94.684 E414.17240
G0 F10500 X105.073 Y93.977
G1 F1500 X102.181 Y96.868 E414.25253
G0 F10500 X101.828 Y96.515
G1 F1500 X105.073 Y93.270 E414.34245
G0 F10500 X105.073 Y92.563
G1 F1500 X101.474 Y96.161 E414.44217
G0 F10500 X101.121 Y95.808
G1 F1500 X105.073 Y91.855 E414.55169
G0 F10500 X105.073 Y91.148
G1 F1500 X100.767 Y95.454 E414.67101
G0 F10500 X100.414 Y95.100
G1 F1500 X105.073 Y90.441 E414.80012
G0 F10500 X105.073 Y89.734
G1 F1500 X100.060 Y94.747 E414.93903
G0 F10500 X99.707 Y94.393
G1 F1500 X105.073 Y89.027 E415.08772
G0 F10500 X105.073 Y88.320
G1 F1500 X99.353 Y94.040 E415.24623
G0 F10500 X98.999 Y93.686
G1 F1500 X105.073 Y87.613 E415.41453
G0 F10500 X105.073 Y86.906
G1 F1500 X98.646 Y93.333 E415.59262
G0 F10500 X98.292 Y92.979
G1 F1500 X105.073 Y86.199 E415.78052
G0 F10500 X105.073 Y85.492
G1 F1500 X97.939 Y92.626 E415.97820
G0 F10500 X97.585 Y92.272
G1 F1500 X105.073 Y84.784 E416.18570
G0 F10500 X105.073 Y84.077
G1 F1500 X97.232 Y91.918 E416.40298
G0 F10500 X96.878 Y91.565
G1 F1500 X105.073 Y83.370 E416.63007
G0 F10500 X105.073 Y82.663
G1 F1500 X96.525 Y91.211 E416.86694
G0 F10500 X96.171 Y90.858
G1 F1500 X105.073 Y81.956 E417.11362
G0 F10500 X105.073 Y81.249
G1 F1500 X95.817 Y90.504 E417.37009
G0 F10500 X95.464 Y90.151
G1 F1500 X105.073 Y80.542 E417.63636
G0 F10500 X104.798 Y80.110
G1 F1500 X95.110 Y89.797 E417.90481
G0 F10500 X94.757 Y89.444
G1 F1500 X104.444 Y79.756 E418.17325
G0 F10500 X104.091 Y79.403
G1 F1500 X94.403 Y89.090 E418.44170
G0 F10500 X94.050 Y88.736
G1 F1500 X103.737 Y79.049 E418.71013
G0 F10500 X103.383 Y78.696
G1 F1500 X93.696 Y88.383 E418.97857
G0 F10500 X93.343 Y88.029
G1 F1500 X103.030 Y78.342 E419.24700
G0 F10500 X102.676 Y77.988
G1 F1500 X92.989 Y87.676 E419.51544
G0 F10500 X92.635 Y87.322
G1 F1500 X102.323 Y77.635 E419.78389
G0 F10500 X101.969 Y77.281
G1 F1500 X92.282 Y86.969 E420.05234
G0 F10500 X91.928 Y86.615
G1 F1500 X101.616 Y76.928 E420.32078
G0 F10500 X101.262 Y76.574
G1 F1500 X91.575 Y86.262 E420.58923
G0 F10500 X91.221 Y85.908
G1 F1500 X100.909 Y76.221 E420.85767
G0 F10500 X100.555 Y75.867
G1 F1500 X90.868 Y85.554 E421.12611
G0 F10500 X90.514 Y85.201
G1 F1500 X100.201 Y75.514 E421.39454
G0 F10500 X99.848 Y75.160
G1 F1500 X90.161 Y84.847 E421.66297
G0 F10500 X89.807 Y84.494
G1 F1500 X99.494 Y74.806 E421.93142
G0 F10500 X99.141 Y74.453
G1 F1500 X89.453 Y84.140 E422.19986
G0 F10500 X89.100 Y83.787
G1 F1500 X98.787 Y74.099 E422.46831
G0 F10500 X98.434 Y73.746
G1 F1500 X88.746 Y83.433 E422.73676
G0 F10500 X88.393 Y83.080
G1 F1500 X98.080 Y73.392 E423.00520
G0 F10500 X97.727 Y73.039
G1 F1500 X88.039 Y82.726 E423.27365
G0 F10500 X87.686 Y82.372
G1 F1500 X97.373 Y72.685 E423.54208
G0 F10500 X97.020 Y72.332
G1 F1500 X87.332 Y82.019 E423.81053
G0 F10500 X86.979 Y81.665
G1 F1500 X96.666 Y71.978 E424.07896
G0 F10500 X96.312 Y71.624
G1 F1500 X86.625 Y81.312 E424.34740
G0 F10500 X86.271 Y80.958
G1 F1500 X95.959 Y71.271 E424.61585
G0 F10500 X95.605 Y70.917
G1 F1500 X85.918 Y80.605 E424.88430
G0 F10500 X85.564 Y80.251
G1 F1500 X95.252 Y70.564 E425.15274
G0 F10500 X94.898 Y70.210
G1 F1500 X85.211 Y79.898 E425.42119
G0 F10500 X84.857 Y79.544
G1 F1500 X94.545 Y69.857 E425.68963
G0 F10500 X94.191 Y69.503
G1 F1500 X84.504 Y79.191 E425.95808
G0 F10500 X84.150 Y78.837
G1 F1500 X93.838 Y69.150 E426.22653
G0 F10500 X93.484 Y68.796
G1 F1500 X83.797 Y78.483 E426.49496
G0 F10500 X83.443 Y78.130
G1 F1500 X93.130 Y68.442 E426.76341
G0 F10500 X92.777 Y68.089
G1 F1500 X83.089 Y77.776 E427.03185
G0 F10500 X82.736 Y77.423
G1 F1500 X92.423 Y67.735 E427.30030
G0 F10500 X92.070 Y67.382
G1 F1500 X82.382 Y77.069 E427.56874
G0 F10500 X82.029 Y76.716
G1 F1500 X91.716 Y67.028 E427.83719
G0 F10500 X91.363 Y66.675
G1 F1500 X81.675 Y76.362 E428.10564
G0 F10500 X81.322 Y76.009
G1 F1500 X91.009 Y66.321 E428.37408
G0 F10500 X90.656 Y65.968
G1 F1500 X80.968 Y75.655 E428.64253
G0 F10500 X80.615 Y75.301
G1 F1500 X90.302 Y65.614 E428.91096
G0 F10500 X89.948 Y65.261
G1 F1500 X80.261 Y74.948 E429.17939
G0 F10500 X89.595 Y64.907
G1 F1500 X54.926 Y99.576 E430.14009
G0 F10500 X54.926 Y98.869
G1 F1500 X89.241 Y64.553 E431.09099
G0 F10500 X88.888 Y64.200
G1 F1500 X54.926 Y98.161 E432.03208
G0 F10500 X54.926 Y97.454
G1 F1500 X88.534 Y63.846 E432.96338
G0 F10500 X88.181 Y63.493
G1 F1500 X54.926 Y96.747 E433.88488
G0 F10500 X54.926 Y96.040
G1 F1500 X87.827 Y63.139 E434.79659
G0 F10500 X87.474 Y62.786
G1 F1500 X54.926 Y95.333 E435.69850
G0 F10500 X54.926 Y94.626
G1 F1500 X87.120 Y62.432 E436.59061
G0 F10500 X86.766 Y62.079
G1 F1500 X54.926 Y93.919 E437.47292
G0 F10500 X54.926 Y93.212
G1 F1500 X86.413 Y61.725 E438.34544
G0 F10500 X86.059 Y61.371
G1 F1500 X54.926 Y92.505 E439.20817
G0 F10500 X54.926 Y91.798
G1 F1500 X85.706 Y61.018 E440.06110
G0 F10500 X85.352 Y60.664
G1 F1500 X54.926 Y91.090 E440.90422
G0 F10500 X54.926 Y90.383
G1 F1500 X84.999 Y60.311 E441.73754
G0 F10500 X84.645 Y59.957
G1 F1500 X54.926 Y89.676 E442.56107
G0 F10500 X54.926 Y88.969
G1 F1500 X84.292 Y59.604 E443.37481
G0 F10500 X83.938 Y59.250
G1 F1500 X54.926 Y88.262 E444.17875
G0 F10500 X54.926 Y87.555
G1 F1500 X83.584 Y58.897 E444.97288
G0 F10500 X83.231 Y58.543
G1 F1500 X54.926 Y86.848 E445.75723
G0 F10500 X54.926 Y86.141
G1 F1500 X82.877 Y58.189 E446.53178
G0 F10500 X82.524 Y57.836
G1 F1500 X54.926 Y85.434 E447.29653
G0 F10500 X54.926 Y84.726
G1 F1500 X82.170 Y57.482 E448.05148
G0 F10500 X81.817 Y57.129
G1 F1500 X54.926 Y84.019 E448.79663
G0 F10500 X54.926 Y83.312
G1 F1500 X81.463 Y56.775 E449.53199
G0 F10500 X81.110 Y56.422
G1 F1500 X54.926 Y82.605 E450.25755
G0 F10500 X54.926 Y81.898
G1 F1500 X80.756 Y56.068 E450.97331
G0 F10500 X80.402 Y55.715
G1 F1500 X54.926 Y81.191 E451.67926
G0 F10500 X54.926 Y80.484
G1 F1500 X80.049 Y55.361 E452.37544
G1 F600 E450.62544
G1 Z1.275
G0 F10500 X98.253 Y106.746
;TYPE:WALL-INNER
G1 Z1.175
G1 F600 E452.37544
G1 F1740 X80.187 Y138.111 E453.08467
G1 X61.761 Y106.746 E453.79745
G1 X98.253 Y106.746 E454.51249
G0 F10500 X99.117 Y106.246
;TYPE:WALL-OUTER
G1 F1500 X80.191 Y139.105 E455.25550
G1 X60.887 Y106.246 E456.00224
G1 X99.117 Y106.246 E456.75133
G0 F10500 X97.787 Y106.920
;TYPE:SKIN
G1 F1500 X75.286 Y129.421 E457.37484
G0 F10500 X75.547 Y129.866
G1 F1500 X97.210 Y108.204 E457.97512
G0 F10500 X97.080 Y106.920
G1 F1500 X75.024 Y128.975 E458.58630
G0 F10500 X74.763 Y128.530
G1 F1500 X96.372 Y106.920 E459.18511
G0 F10500 X95.665 Y106.920
G1 F1500 X74.501 Y128.084 E459.77157
G0 F10500 X74.239 Y127.639
G1 F1500 X94.958 Y106.920 E460.34571
G0 F10500 X94.251 Y106.920
G1 F1500 X73.978 Y127.193 E460.90748
G0 F10500 X73.716 Y126.748
G1 F1500 X93.544 Y106.920 E461.45693
G0 F10500 X92.837 Y106.920
G1 F1500 X73.454 Y126.302 E461.99403
G0 F10500 X73.193 Y125.857
G1 F1500 X92.130 Y106.920 E462.51878
G0 F10500 X91.423 Y106.920
G1 F1500 X72.930 Y125.412 E463.03122
G0 F10500 X72.669 Y124.966
G1 F1500 X90.716 Y106.920 E463.53130
G0 F10500 X90.009 Y106.920
G1 F1500 X72.407 Y124.521 E464.01905
G0 F10500 X72.146 Y124.076
G1 F1500 X89.301 Y106.920 E464.49444
G0 F10500 X88.594 Y106.920
G1 F1500 X71.884 Y123.630 E464.95748
G0 F10500 X71.622 Y123.185
G1 F1500 X87.887 Y106.920 E465.40819
G0 F10500 X87.180 Y106.920
G1 F1500 X71.361 Y122.739 E465.84655
G0 F10500 X71.099 Y122.294
G1 F1500 X86.473 Y106.920 E466.27257
G0 F10500 X85.766 Y106.920
G1 F1500 X70.837 Y121.848 E466.68625
G0 F10500 X70.576 Y121.403
G1 F1500 X85.059 Y106.920 E467.08758
G0 F10500 X84.352 Y106.920
G1 F1500 X70.314 Y120.957 E467.47657
G0 F10500 X70.053 Y120.512
G1 F1500 X83.645 Y106.920 E467.85321
G0 F10500 X82.937 Y106.920
G1 F1500 X69.791 Y120.066 E468.21749
G0 F10500 X75.809 Y130.312
G1 F1500 X96.249 Y109.872 E468.78389
G0 F10500 X95.289 Y111.539
G1 F1500 X76.071 Y130.757 E469.31644
G0 F10500 X76.332 Y131.202
G1 F1500 X94.328 Y113.207 E469.81510
G0 F10500 X93.367 Y114.875
G1 F1500 X76.595 Y131.647 E470.27986
G0 F10500 X76.856 Y132.093
G1 F1500 X92.407 Y116.542 E470.71079
G0 F10500 X91.446 Y118.210
G1 F1500 X77.118 Y132.538 E471.10783
G0 F10500 X77.380 Y132.984
G1 F1500 X90.486 Y119.877 E471.47102
G0 F10500 X82.230 Y106.920
G1 F1500 X69.529 Y119.621 E471.82297
G0 F10500 X69.267 Y119.176
G1 F1500 X81.523 Y106.920 E472.16259
G0 F10500 X80.816 Y106.920
G1 F1500 X69.005 Y118.731 E472.48988
G0 F10500 X68.744 Y118.285
G1 F1500 X80.109 Y106.920 E472.80481
G0 F10500 X79.402 Y106.920
G1 F1500 X68.482 Y117.840 E473.10741
G0 F10500 X68.220 Y117.394
G1 F1500 X78.695 Y106.920 E473.39766
G0 F10500 X77.988 Y106.920
G1 F1500 X67.959 Y116.949 E473.67557
G0 F10500 X67.697 Y116.503
G1 F1500 X77.281 Y106.920 E473.94114
G0 F10500 X76.574 Y106.920
G1 F1500 X67.436 Y116.058 E474.19435
G0 F10500 X67.174 Y115.612
G1 F1500 X75.866 Y106.920 E474.43522
G0 F10500 X75.159 Y106.920
G1 F1500 X66.912 Y115.167 E474.66374
G0 F10500 X66.651 Y114.721
G1 F1500 X74.452 Y106.920 E474.87991
G0 F10500 X73.745 Y106.920
G1 F1500 X66.389 Y114.276 E475.08375
G0 F10500 X66.127 Y113.831
G1 F1500 X73.038 Y106.920 E475.27526
G0 F10500 X72.331 Y106.920
G1 F1500 X65.865 Y113.385 E475.45442
G0 F10500 X65.603 Y112.940
G1 F1500 X71.624 Y106.920 E475.62126
G0 F10500 X70.917 Y106.920
G1 F1500 X65.342 Y112.495 E475.77574
G0 F10500 X65.080 Y112.049
G1 F1500 X70.210 Y106.920 E475.91788
G0 F10500 X69.502 Y106.920
G1 F1500 X64.819 Y111.604 E476.04767
G0 F10500 X64.557 Y111.158
G1 F1500 X68.795 Y106.920 E476.16510
G0 F10500 X68.088 Y106.920
G1 F1500 X64.295 Y110.713 E476.27021
G0 F10500 X64.034 Y110.267
G1 F1500 X67.381 Y106.920 E476.36296
G0 F10500 X66.674 Y106.920
G1 F1500 X63.772 Y109.822 E476.44337
G0 F10500 X63.510 Y109.376
G1 F1500 X65.967 Y106.920 E476.51144
G0 F10500 X65.260 Y106.920
G1 F1500 X63.249 Y108.931 E476.56717
G0 F10500 X62.987 Y108.485
G1 F1500 X64.553 Y106.920 E476.61055
G0 F10500 X63.846 Y106.920
G1 F1500 X62.725 Y108.040 E476.64160
G0 F10500 X62.463 Y107.595
G1 F1500 X62.784 Y106.920 E476.66029
G1 X62.202 Y107.150 E476.67255
G0 F10500 X77.641 Y133.429
G1 F1500 X89.525 Y121.545 E477.00186
G0 F10500 X88.565 Y123.213
G1 F1500 X77.903 Y133.875 E477.29731
G0 F10500 X78.164 Y134.320
G1 F1500 X87.604 Y124.880 E477.55890
G0 F10500 X86.643 Y126.548
G1 F1500 X78.426 Y134.766 E477.78661
G0 F10500 X78.688 Y135.211
G1 F1500 X85.683 Y128.216 E477.98045
G0 F10500 X84.723 Y129.883
G1 F1500 X78.949 Y135.657 E478.14045
G0 F10500 X79.211 Y136.102
G1 F1500 X83.762 Y131.551 E478.26656
G0 F10500 X82.802 Y133.218
G1 F1500 X79.473 Y136.547 E478.35881
G0 F10500 X79.734 Y136.993
G1 F1500 X81.841 Y134.886 E478.41719
G0 F10500 X80.880 Y136.554
G1 F1500 X79.997 Y137.438 E478.44168
;LAYER:4
G1 F600 E476.69168
G1 Z1.275
G0 F10500 X54.751 Y100.186 Z1.425
;TYPE:WALL-INNER
G1 Z1.425
G1 F600 E478.44168
G1 F2100 X54.751 Y80.312 E478.83109
G1 X80.000 Y55.064 E479.53074
G1 X104.981 Y80.046 E480.22299
G1 X105.249 Y80.313 E480.23041
G1 X105.249 Y100.183 E480.61975
G1 X80.001 Y74.935 E481.31938
G1 X54.751 Y100.186 E482.01909
G0 F10500 X54.251 Y101.392
;TYPE:WALL-OUTER
G1 F1800 X54.251 Y80.106 E482.43617
G1 X80.000 Y54.358 E483.14968
G1 X105.749 Y80.106 E483.86318
G1 X105.749 Y101.389 E484.28021
G1 X80.001 Y75.642 E484.99369
G1 X54.251 Y101.392 E485.70724
G1 F600 E483.95724
G1 Z1.525
G0 F10500 X54.926 Y97.101
;TYPE:FILL
G1 Z1.425
G1 F600 E485.70724
G1 F2400 X88.357 Y63.670 E486.63363
G0 F10500 X91.893 Y67.205
G1 F2400 X82.206 Y76.892 E486.90206
G0 F10500 X85.741 Y80.428
G1 F2400 X95.429 Y70.741 E487.17051
G0 F10500 X98.964 Y74.276
G1 F2400 X89.277 Y83.963 E487.43894
G0 F10500 X92.812 Y87.499
G1 F2400 X102.500 Y77.812 E487.70738
G0 F10500 X105.073 Y82.310
G1 F2400 X96.348 Y91.035 E487.94916
G0 F10500 X99.883 Y94.570
G1 F2400 X105.073 Y89.381 E488.09296
G0 F10500 X105.073 Y87.396
G1 F2400 X76.494 Y58.817 E488.88490
G0 F10500 X72.959 Y62.352
G1 F2400 X105.073 Y94.467 E489.77481
G0 F10500 X105.073 Y96.452
G1 F2400 X103.419 Y98.106 E489.82065
G0 F10500 X80.001 Y75.089
G0 X79.111 Y75.576
G1 F2400 X69.423 Y65.888 E490.08911
G0 F10500 X65.888 Y69.423
G1 F2400 X75.576 Y79.111 E490.35757
G0 F10500 X72.040 Y82.647
G1 F2400 X62.352 Y72.959 E490.62603
G0 F10500 X58.817 Y76.494
G1 F2400 X68.505 Y86.182 E490.89449
G0 F10500 X64.969 Y89.718
G1 F2400 X55.281 Y80.030 E491.16295
G0 F10500 X54.926 Y82.959
G1 F2400 X81.286 Y56.598 E491.89341
G0 F10500 X84.822 Y60.134
G1 F2400 X54.926 Y90.030 E492.72185
G0 F10500 X54.925 Y86.745
G1 F2400 X61.434 Y93.253 E492.90220
G0 F10500 X57.898 Y96.789
G1 F2400 X54.925 Y93.816 E492.98458
G1 F600 E491.23458
G1 Z1.525
G0 F10500 X61.760 Y106.746
;TYPE:WALL-INNER
G1 Z1.425
G1 F600 E492.98458
G1 F2100 X98.253 Y106.746 E493.69964
G1 X80.187 Y138.112 E494.40889
G1 X61.760 Y106.746 E495.12170
G0 F10500 X60.887 Y106.246
;TYPE:WALL-OUTER
G1 F1800 X99.117 Y106.246 E495.87079
G1 X80.191 Y139.105 E496.61380
G1 X60.887 Y106.246 E497.36054
G1 F600 E495.61054
G1 Z1.525
G0 F10500 X63.640 Y109.600
;TYPE:FILL
G1 Z1.425
G1 F600 E497.36054
G1 F2400 X64.321 Y108.919 E497.37941
G0 F10500 X63.641 Y109.603
G1 F2400 X66.265 Y112.227 E497.45212
G0 F10500 X66.938 Y113.373
G1 F2400 X66.257 Y114.054 E497.47099
G0 F10500 X69.555 Y117.828
G1 F2400 X68.874 Y118.508 E497.48985
G0 F10500 X68.961 Y107.852
G1 F2400 X68.030 Y106.920 E497.51566
G0 F10500 X66.320 Y106.920
G1 F2400 X65.388 Y107.852 E497.54149
G0 F10500 X72.459 Y107.852
G1 F2400 X73.392 Y106.920 E497.56733
G0 F10500 X75.101 Y106.920
G1 F2400 X76.032 Y107.852 E497.59314
G0 F10500 X79.530 Y107.852
G1 F2400 X80.463 Y106.920 E497.61898
G0 F10500 X82.172 Y106.920
G1 F2400 X83.103 Y107.852 E497.64480
G0 F10500 X86.601 Y107.852
G1 F2400 X87.534 Y106.920 E497.67064
G0 F10500 X89.243 Y106.920
G1 F2400 X90.174 Y107.852 E497.69645
G0 F10500 X93.672 Y107.852
G1 F2400 X94.605 Y106.920 E497.72229
G0 F10500 X96.314 Y106.920
G1 F2400 X97.352 Y107.958 E497.75105
G0 F10500 X94.080 Y111.758
G1 F2400 X94.767 Y112.445 E497.77009
G0 F10500 X92.888 Y115.708
G1 F2400 X90.340 Y118.255 E497.84068
G0 F10500 X92.184 Y116.932
G1 F2400 X91.497 Y116.246 E497.85970
G0 F10500 X88.913 Y120.733
G1 F2400 X89.599 Y121.419 E497.87871
G0 F10500 X86.329 Y125.220
G1 F2400 X87.015 Y125.906 E497.89772
G0 F10500 X83.746 Y129.708
G1 F2400 X84.431 Y130.393 E497.91671
G0 F10500 X83.283 Y132.383
G1 F2400 X80.743 Y134.923 E497.98709
G0 F10500 X81.162 Y134.195
G1 F2400 X81.846 Y134.879 E498.00604
G0 F10500 X80.020 Y135.647
G1 F2400 X79.342 Y136.325 E498.02483
G0 F10500 X76.725 Y131.871
G1 F2400 X77.404 Y131.191 E498.04366
G0 F10500 X76.333 Y129.366
G1 F2400 X73.713 Y126.746 E498.11626
G0 F10500 X74.108 Y127.417
G1 F2400 X74.788 Y126.736 E498.13512
G0 F10500 X71.491 Y122.963
G1 F2400 X72.171 Y122.282 E498.15398
G0 F10500 X71.987 Y123.252
;TYPE:SKIN
G1 F1800 X82.283 Y133.548 E498.43928
G0 F10500 X82.541 Y133.100
G1 F1800 X70.980 Y121.538 E498.75966
G0 F10500 X72.993 Y124.966
G1 F1800 X82.025 Y133.997 E499.00993
G0 F10500 X81.766 Y134.446
G1 F1800 X74.000 Y126.680 E499.22513
G0 F10500 X75.007 Y128.394
G1 F1800 X81.508 Y134.895 E499.40528
G0 F10500 X81.250 Y135.344
G1 F1800 X76.014 Y130.108 E499.55037
G0 F10500 X77.021 Y131.822
G1 F1800 X80.992 Y135.792 E499.66039
G0 F10500 X80.733 Y136.241
G1 F1800 X78.028 Y133.536 E499.73535
G0 F10500 X79.036 Y135.251
G1 F1800 X80.170 Y136.385 E499.76677
G0 F10500 X82.800 Y132.651
G1 F1800 X69.973 Y119.824 E500.12222
G0 F10500 X68.965 Y118.109
G1 F1800 X83.058 Y132.202 E500.51274
G0 F10500 X83.316 Y131.753
G1 F1800 X67.958 Y116.395 E500.93832
G0 F10500 X66.951 Y114.681
G1 F1800 X83.574 Y131.304 E501.39895
G0 F10500 X83.833 Y130.855
G1 F1800 X65.944 Y112.967 E501.89465
G0 F10500 X64.937 Y111.253
G1 F1800 X84.091 Y130.406 E502.42541
G0 F10500 X84.349 Y129.957
G1 F1800 X63.930 Y109.539 E502.99122
G0 F10500 X63.078 Y107.979
G1 F1800 X84.607 Y129.508 E503.58780
G0 F10500 X84.865 Y129.059
G1 F1800 X63.334 Y107.529 E504.18442
G0 F10500 X63.715 Y107.202
G1 F1800 X85.124 Y128.611 E504.77768
G0 F10500 X85.382 Y128.162
G1 F1800 X64.422 Y107.202 E505.35849
G0 F10500 X65.129 Y107.202
G1 F1800 X85.640 Y127.713 E505.92686
G0 F10500 X85.898 Y127.264
G1 F1800 X65.836 Y107.202 E506.48279
G0 F10500 X66.543 Y107.202
G1 F1800 X86.156 Y126.815 E507.02628
G0 F10500 X86.415 Y126.367
G1 F1800 X67.250 Y107.202 E507.55735
G0 F10500 X67.957 Y107.202
G1 F1800 X86.673 Y125.918 E508.07598
G0 F10500 X86.931 Y125.469
G1 F1800 X68.665 Y107.202 E508.58216
G0 F10500 X69.372 Y107.202
G1 F1800 X87.189 Y125.020 E509.07589
G0 F10500 X87.447 Y124.571
G1 F1800 X70.079 Y107.202 E509.55718
G0 F10500 X70.786 Y107.202
G1 F1800 X87.706 Y124.122 E510.02604
G0 F10500 X87.964 Y123.673
G1 F1800 X71.493 Y107.202 E510.48246
G0 F10500 X72.200 Y107.202
G1 F1800 X88.222 Y123.224 E510.92644
G0 F10500 X88.480 Y122.775
G1 F1800 X72.907 Y107.202 E511.35798
G0 F10500 X73.614 Y107.202
G1 F1800 X88.739 Y122.326 E511.77709
G0 F10500 X88.997 Y121.878
G1 F1800 X74.321 Y107.202 E512.18377
G0 F10500 X75.028 Y107.202
G1 F1800 X89.255 Y121.429 E512.57801
G0 F10500 X89.514 Y120.980
G1 F1800 X75.736 Y107.202 E512.95980
G0 F10500 X76.443 Y107.202
G1 F1800 X89.772 Y120.531 E513.32916
G0 F10500 X90.030 Y120.082
G1 F1800 X77.150 Y107.202 E513.68607
G0 F10500 X77.857 Y107.202
G1 F1800 X90.289 Y119.633 E514.03055
G0 F10500 X90.547 Y119.184
G1 F1800 X78.564 Y107.202 E514.36259
G0 F10500 X79.271 Y107.202
G1 F1800 X90.805 Y118.735 E514.68219
G0 F10500 X91.063 Y118.286
G1 F1800 X79.978 Y107.202 E514.98935
G0 F10500 X80.685 Y107.202
G1 F1800 X91.321 Y117.837 E515.28407
G0 F10500 X91.580 Y117.389
G1 F1800 X81.392 Y107.202 E515.56637
G0 F10500 X82.100 Y107.202
G1 F1800 X91.838 Y116.940 E515.83621
G0 F10500 X92.096 Y116.491
G1 F1800 X82.807 Y107.202 E516.09362
G0 F10500 X83.514 Y107.202
G1 F1800 X92.354 Y116.042 E516.33858
G0 F10500 X92.612 Y115.593
G1 F1800 X84.221 Y107.202 E516.57110
G0 F10500 X84.928 Y107.202
G1 F1800 X92.871 Y115.145 E516.79120
G0 F10500 X93.129 Y114.696
G1 F1800 X85.635 Y107.202 E516.99887
G0 F10500 X86.342 Y107.202
G1 F1800 X93.387 Y114.247 E517.19409
G0 F10500 X93.645 Y113.798
G1 F1800 X87.049 Y107.202 E517.37687
G0 F10500 X87.756 Y107.202
G1 F1800 X93.903 Y113.349 E517.54720
G0 F10500 X94.162 Y112.900
G1 F1800 X88.464 Y107.202 E517.70510
G0 F10500 X89.171 Y107.202
G1 F1800 X94.420 Y112.451 E517.85055
G0 F10500 X94.678 Y112.002
G1 F1800 X89.878 Y107.202 E517.98356
G0 F10500 X90.585 Y107.202
G1 F1800 X94.936 Y111.553 E518.10413
G0 F10500 X95.194 Y111.104
G1 F1800 X91.292 Y107.202 E518.21226
G0 F10500 X91.999 Y107.202
G1 F1800 X95.453 Y110.656 E518.30797
G0 F10500 X95.711 Y110.207
G1 F1800 X92.706 Y107.202 E518.39124
G0 F10500 X93.413 Y107.202
G1 F1800 X95.969 Y109.758 E518.46207
G0 F10500 X96.228 Y109.309
G1 F1800 X94.120 Y107.202 E518.52047
G0 F10500 X94.827 Y107.202
G1 F1800 X96.486 Y108.860 E518.56643
G0 F10500 X96.744 Y108.412
G1 F1800 X95.535 Y107.202 E518.59994
G0 F10500 X96.242 Y107.202
G1 F1800 X97.003 Y107.963 E518.62103
G0 F10500 X97.261 Y107.514
G1 F1800 X96.949 Y107.202 E518.62968
;LAYER:5
G1 F600 E516.87968
G1 Z1.525
G0 F10500 X105.249 Y100.182 Z1.675
;TYPE:WALL-INNER
G1 Z1.675
G1 F600 E518.62968
G1 F2100 X80.001 Y74.935 E519.32930
G1 X54.751 Y100.186 E520.02900
G1 X54.751 Y80.313 E520.41840
G1 X80.000 Y55.064 E521.11807
G1 X104.888 Y79.951 E521.80771
G1 X105.245 Y80.310 E521.81763
G1 X105.249 Y100.182 E522.20701
G0 F10500 X105.749 Y101.390
;TYPE:WALL-OUTER
G1 F1800 X80.001 Y75.642 E522.92050
G1 X54.251 Y101.392 E523.63405
G1 X54.251 Y80.105 E524.05115
G1 X80.000 Y54.357 E524.76466
G1 X105.749 Y80.106 E525.47818
G1 X105.749 Y101.390 E525.89523
G1 F600 E524.14523
G1 Z1.775
G0 F10500 X103.419 Y98.106
;TYPE:FILL
G1 Z1.675
G1 F600 E525.89523
G1 F2400 X103.649 Y97.875 E525.90161
G0 F10500 X104.923 Y96.602
G1 F2400 X105.072 Y96.452 E525.90576
G0 F10500 X105.072 Y94.465
G1 F2400 X104.921 Y94.315 E525.90993
G0 F10500 X104.921 Y89.532
G1 F2400 X105.071 Y89.383 E525.91407
G0 F10500 X105.071 Y87.393
G1 F2400 X104.920 Y87.242 E525.91825
G0 F10500 X104.920 Y82.462
G1 F2400 X105.069 Y82.313 E525.92238
G0 F10500 X100.114 Y94.340
G1 F2400 X99.883 Y94.570 E525.92877
G0 F10500 X96.348 Y91.035
G1 F2400 X96.578 Y90.804 E525.93516
G0 F10500 X93.043 Y87.268
G1 F2400 X92.812 Y87.499 E525.94156
G0 F10500 X89.277 Y83.963
G1 F2400 X89.507 Y83.733 E525.94793
G0 F10500 X85.972 Y80.197
G1 F2400 X85.741 Y80.428 E525.95433
G0 F10500 X82.206 Y76.892
G1 F2400 X82.436 Y76.662 E525.96071
G0 F10500 X91.684 Y67.414
G1 F2400 X91.892 Y67.206 E525.96647
G0 F10500 X95.428 Y70.741
G1 F2400 X95.219 Y70.950 E525.97226
G0 F10500 X98.755 Y74.485
G1 F2400 X98.963 Y74.277 E525.97802
G0 F10500 X88.357 Y63.670
G1 F2400 X88.148 Y63.879 E525.98382
G0 F10500 X84.613 Y60.343
G1 F2400 X84.821 Y60.135 E525.98958
G0 F10500 X81.286 Y56.599
G1 F2400 X81.077 Y56.808 E525.99537
G0 F10500 X76.705 Y59.027
G1 F2400 X76.494 Y58.817 E526.00120
G0 F10500 X72.959 Y62.352
G1 F2400 X73.169 Y62.563 E526.00704
G0 F10500 X69.634 Y66.098
G1 F2400 X69.423 Y65.888 E526.01287
G0 F10500 X65.888 Y69.423
G1 F2400 X66.098 Y69.634 E526.01870
G0 F10500 X62.563 Y73.169
G1 F2400 X62.352 Y72.959 E526.02454
G0 F10500 X75.346 Y78.882
G1 F2400 X75.576 Y79.111 E526.03090
G0 F10500 X79.111 Y75.576
G1 F2400 X78.882 Y75.347 E526.03724
G0 F10500 X71.810 Y82.417
G1 F2400 X72.040 Y82.647 E526.04362
G0 F10500 X68.505 Y86.182
G1 F2400 X68.274 Y85.952 E526.05000
G0 F10500 X64.738 Y89.487
G1 F2400 X64.969 Y89.718 E526.05640
G0 F10500 X61.434 Y93.253
G1 F2400 X61.202 Y93.022 E526.06282
G0 F10500 X57.665 Y96.556
G1 F2400 X57.898 Y96.789 E526.06928
G0 F10500 X55.079 Y96.948
G1 F2400 X54.926 Y97.101 E526.07352
G0 F10500 X55.079 Y93.970
G1 F2400 X54.926 Y93.817 E526.07775
G0 F10500 X54.926 Y90.030
G1 F2400 X55.079 Y89.877 E526.08199
G0 F10500 X55.079 Y86.899
G1 F2400 X54.926 Y86.746 E526.08623
G0 F10500 X54.926 Y82.959
G1 F2400 X55.079 Y82.806 E526.09047
G0 F10500 X55.492 Y80.241
G1 F2400 X55.281 Y80.030 E526.09632
G0 F10500 X58.817 Y76.494
G1 F2400 X59.027 Y76.705 E526.10215
G0 F10500 X80.001 Y75.088
G0 X102.290 Y78.021
G1 F2400 X102.499 Y77.812 E526.10795
G0 F10500 X102.322 Y77.636
;TYPE:SKIN
G1 F1800 X92.635 Y87.322 E526.37636
G0 F10500 X92.282 Y86.969
G1 F1800 X101.969 Y77.282 E526.64480
G0 F10500 X101.615 Y76.928
G1 F1800 X91.928 Y86.615 E526.91323
G0 F10500 X91.575 Y86.262
G1 F1800 X101.261 Y76.575 E527.18165
G0 F10500 X100.908 Y76.221
G1 F1800 X91.221 Y85.908 E527.45008
G0 F10500 X90.868 Y85.554
G1 F1800 X100.554 Y75.868 E527.71848
G0 F10500 X100.201 Y75.514
G1 F1800 X90.514 Y85.201 E527.98692
G0 F10500 X90.161 Y84.847
G1 F1800 X99.847 Y75.161 E528.25532
G0 F10500 X99.494 Y74.807
G1 F1800 X89.807 Y84.494 E528.52375
G0 F10500 X89.453 Y84.140
G1 F1800 X99.140 Y74.454 E528.79217
G0 F10500 X98.787 Y74.100
G1 F1800 X89.100 Y83.787 E529.06060
G0 F10500 X88.746 Y83.433
G1 F1800 X98.433 Y73.746 E529.32904
G0 F10500 X98.079 Y73.393
G1 F1800 X88.393 Y83.080 E529.59745
G0 F10500 X88.039 Y82.726
G1 F1800 X97.726 Y73.039 E529.86589
G0 F10500 X97.372 Y72.686
G1 F1800 X87.686 Y82.372 E530.13429
G0 F10500 X87.332 Y82.019
G1 F1800 X97.019 Y72.332 E530.40272
G0 F10500 X96.665 Y71.979
G1 F1800 X86.979 Y81.665 E530.67113
G0 F10500 X86.625 Y81.312
G1 F1800 X96.312 Y71.625 E530.93956
G0 F10500 X95.958 Y71.272
G1 F1800 X86.271 Y80.958 E531.20798
G0 F10500 X85.918 Y80.605
G1 F1800 X95.605 Y70.918 E531.47641
G0 F10500 X95.251 Y70.565
G1 F1800 X85.564 Y80.251 E531.74483
G0 F10500 X92.989 Y87.676
G1 F1800 X102.676 Y77.989 E532.01326
G0 F10500 X103.029 Y78.343
G1 F1800 X93.343 Y88.029 E532.28167
G0 F10500 X93.696 Y88.383
G1 F1800 X103.383 Y78.696 E532.55010
G0 F10500 X103.736 Y79.050
G1 F1800 X94.050 Y88.736 E532.81850
G0 F10500 X94.403 Y89.090
G1 F1800 X104.090 Y79.403 E533.08693
G0 F10500 X104.443 Y79.757
G1 F1800 X94.757 Y89.444 E533.35535
G0 F10500 X95.110 Y89.797
G1 F1800 X104.797 Y80.110 E533.62379
G0 F10500 X105.069 Y80.545
G1 F1800 X95.464 Y90.151 E533.88996
G0 F10500 X95.817 Y90.504
G1 F1800 X105.069 Y81.252 E534.14634
G0 F10500 X105.069 Y81.960
G1 F1800 X96.171 Y90.858 E534.39291
G0 F10500 X96.525 Y91.211
G1 F1800 X105.069 Y82.667 E534.62967
G0 F10500 X105.069 Y83.374
G1 F1800 X96.878 Y91.565 E534.85664
G0 F10500 X97.232 Y91.918
G1 F1800 X105.069 Y84.081 E535.07381
G0 F10500 X105.070 Y84.787
G1 F1800 X97.585 Y92.272 E535.28122
G0 F10500 X97.939 Y92.626
G1 F1800 X105.070 Y85.494 E535.47884
G0 F10500 X105.070 Y86.201
G1 F1800 X98.292 Y92.979 E535.66666
G0 F10500 X98.646 Y93.333
G1 F1800 X105.070 Y86.909 E535.84468
G0 F10500 X105.070 Y87.616
G1 F1800 X98.999 Y93.686 E536.01289
G0 F10500 X99.353 Y94.040
G1 F1800 X105.071 Y88.322 E536.17134
G0 F10500 X105.071 Y89.029
G1 F1800 X99.707 Y94.393 E536.31998
G0 F10500 X100.060 Y94.747
G1 F1800 X105.071 Y89.736 E536.45884
G0 F10500 X105.071 Y90.443
G1 F1800 X100.414 Y95.100 E536.58789
G0 F10500 X100.767 Y95.454
G1 F1800 X105.071 Y91.151 E536.70714
G0 F10500 X105.071 Y91.857
G1 F1800 X101.121 Y95.808 E536.81661
G0 F10500 X101.474 Y96.161
G1 F1800 X105.071 Y92.564 E536.91629
G0 F10500 X105.071 Y93.271
G1 F1800 X101.828 Y96.515 E537.00617
G0 F10500 X102.181 Y96.868
G1 F1800 X105.071 Y93.978 E537.08625
G0 F10500 X105.071 Y94.685
G1 F1800 X102.535 Y97.222 E537.15654
G0 F10500 X102.888 Y97.575
G1 F1800 X105.071 Y95.392 E537.21703
G0 F10500 X105.072 Y96.099
G1 F1800 X103.242 Y97.929 E537.26774
G0 F10500 X103.596 Y98.282
G1 F1800 X105.072 Y96.806 E537.30864
G0 F10500 X105.072 Y97.513
G1 F1800 X103.949 Y98.636 E537.33976
G0 F10500 X104.303 Y98.989
G1 F1800 X105.072 Y98.220 E537.36107
G0 F10500 X105.072 Y98.927
G1 F1800 X104.656 Y99.343 E537.37260
G0 F10500 X85.211 Y79.898
G1 F1800 X94.897 Y70.211 E537.64101
G0 F10500 X94.544 Y69.857
G1 F1800 X84.857 Y79.544 E537.90945
G0 F10500 X84.504 Y79.191
G1 F1800 X94.190 Y69.504 E538.17786
G0 F10500 X93.837 Y69.150
G1 F1800 X84.150 Y78.837 E538.44630
G0 F10500 X83.797 Y78.483
G1 F1800 X93.483 Y68.797 E538.71470
G0 F10500 X93.130 Y68.443
G1 F1800 X83.443 Y78.130 E538.98313
G0 F10500 X83.089 Y77.776
G1 F1800 X92.776 Y68.090 E539.25155
G0 F10500 X92.423 Y67.736
G1 F1800 X82.736 Y77.423 E539.51998
G0 F10500 X82.382 Y77.069
G1 F1800 X92.069 Y67.383 E539.78840
G0 F10500 X91.715 Y67.029
G1 F1800 X82.029 Y76.716 E540.05682
G0 F10500 X81.675 Y76.362
G1 F1800 X91.362 Y66.675 E540.32525
G0 F10500 X91.008 Y66.322
G1 F1800 X81.322 Y76.009 E540.59367
G0 F10500 X80.968 Y75.655
G1 F1800 X90.655 Y65.968 E540.86210
G0 F10500 X90.301 Y65.615
G1 F1800 X80.615 Y75.301 E541.13051
G0 F10500 X80.261 Y74.948
G1 F1800 X89.948 Y65.261 E541.39894
G0 F10500 X89.594 Y64.908
G1 F1800 X54.996 Y99.506 E542.35767
G0 F10500 X54.926 Y98.869
G1 F1800 X89.241 Y64.554 E543.30856
G0 F10500 X88.887 Y64.201
G1 F1800 X54.926 Y98.161 E544.24962
G0 F10500 X54.926 Y97.454
G1 F1800 X88.534 Y63.847 E545.18091
G0 F10500 X88.180 Y63.493
G1 F1800 X54.926 Y96.747 E546.10239
G0 F10500 X54.926 Y96.040
G1 F1800 X87.826 Y63.140 E547.01407
G0 F10500 X87.473 Y62.786
G1 F1800 X54.926 Y95.333 E547.91597
G0 F10500 X54.926 Y94.626
G1 F1800 X87.119 Y62.433 E548.80805
G0 F10500 X86.766 Y62.079
G1 F1800 X54.926 Y93.919 E549.69036
G0 F10500 X54.926 Y93.212
G1 F1800 X86.412 Y61.726 E550.56285
G0 F10500 X86.059 Y61.372
G1 F1800 X54.926 Y92.505 E551.42557
G0 F10500 X54.926 Y91.798
G1 F1800 X85.705 Y61.019 E552.27847
G0 F10500 X85.352 Y60.665
G1 F1800 X54.926 Y91.090 E553.12158
G0 F10500 X54.926 Y90.383
G1 F1800 X84.998 Y60.311 E553.95489
G0 F10500 X84.644 Y59.958
G1 F1800 X54.926 Y89.676 E554.77839
G0 F10500 X54.926 Y88.969
G1 F1800 X84.291 Y59.604 E555.59211
G0 F10500 X83.937 Y59.251
G1 F1800 X54.926 Y88.262 E556.39602
G0 F10500 X54.926 Y87.555
G1 F1800 X83.584 Y58.897 E557.19015
G0 F10500 X83.230 Y58.544
G1 F1800 X54.926 Y86.848 E557.97447
G0 F10500 X54.926 Y86.141
G1 F1800 X82.877 Y58.190 E558.74901
G0 F10500 X82.523 Y57.837
G1 F1800 X54.926 Y85.434 E559.51374
G0 F10500 X54.926 Y84.726
G1 F1800 X82.170 Y57.483 E560.26867
G0 F10500 X81.816 Y57.129
G1 F1800 X54.926 Y84.019 E561.01381
G0 F10500 X54.926 Y83.312
G1 F1800 X81.462 Y56.776 E561.74914
G0 F10500 X81.109 Y56.422
G1 F1800 X54.926 Y82.605 E562.47468
G0 F10500 X54.926 Y81.898
G1 F1800 X80.755 Y56.069 E563.19042
G0 F10500 X80.402 Y55.715
G1 F1800 X54.926 Y81.191 E563.89637
G0 F10500 X54.926 Y80.484
G1 F1800 X80.048 Y55.362 E564.59252
G1 F600 E562.84252
G1 Z1.775
G0 F10500 X98.253 Y106.746
;TYPE:WALL-INNER
G1 Z1.675
G1 F600 E564.59252
G1 F2100 X80.187 Y138.111 E565.30175
G1 X61.761 Y106.746 E566.01454
G1 X98.253 Y106.746 E566.72957
G0 F10500 X99.117 Y106.246
;TYPE:WALL-OUTER
G1 F1800 X80.191 Y139.105 E567.47258
G1 X60.887 Y106.246 E568.21932
G1 X99.117 Y106.246 E568.96841
G1 F600 E567.21841
G1 Z1.775
G0 F10500 X97.352 Y107.958
;TYPE:FILL
G1 Z1.675
G1 F600 E568.96841
G1 F2400 X96.313 Y106.920 E568.99719
G0 F10500 X94.605 Y106.920
G1 F2400 X93.672 Y107.852 E569.02303
G0 F10500 X90.175 Y107.852
G1 F2400 X89.242 Y106.920 E569.04887
G0 F10500 X87.534 Y106.920
G1 F2400 X86.601 Y107.852 E569.07471
G0 F10500 X83.104 Y107.852
G1 F2400 X82.171 Y106.920 E569.10055
G0 F10500 X80.463 Y106.920
G1 F2400 X79.530 Y107.852 E569.12639
G0 F10500 X76.033 Y107.852
G1 F2400 X75.100 Y106.920 E569.15223
G0 F10500 X73.392 Y106.920
G1 F2400 X72.459 Y107.852 E569.17807
G0 F10500 X68.962 Y107.852
G1 F2400 X68.029 Y106.920 E569.20391
G0 F10500 X66.320 Y106.920
G1 F2400 X65.388 Y107.852 E569.22974
G0 F10500 X64.321 Y108.919
G1 F2400 X63.641 Y109.599 E569.24858
G0 F10500 X63.645 Y109.607
G1 F2400 X66.265 Y112.227 E569.32118
G0 F10500 X66.938 Y113.373
G1 F2400 X66.258 Y114.054 E569.34004
G0 F10500 X69.553 Y117.829
G1 F2400 X68.875 Y118.508 E569.35884
G0 F10500 X72.170 Y122.284
G1 F2400 X71.492 Y122.962 E569.37763
G0 F10500 X73.715 Y126.748
G1 F2400 X76.322 Y129.355 E569.44987
G0 F10500 X77.402 Y131.194
G1 F2400 X76.726 Y131.870 E569.46860
G0 F10500 X80.017 Y135.649
G1 F2400 X79.342 Y136.325 E569.48732
G0 F10500 X74.109 Y127.416
G1 F2400 X74.785 Y126.739 E569.50607
G0 F10500 X83.745 Y129.707
G1 F2400 X84.430 Y130.392 E569.52505
G0 F10500 X83.282 Y132.385
G1 F2400 X80.737 Y134.930 E569.59557
G0 F10500 X81.161 Y134.194
G1 F2400 X81.846 Y134.879 E569.61455
G0 F10500 X87.015 Y125.906
G1 F2400 X86.329 Y125.220 E569.63356
G0 F10500 X89.599 Y121.419
G1 F2400 X88.915 Y120.734 E569.65253
G0 F10500 X90.347 Y118.248
G1 F2400 X92.887 Y115.708 E569.72291
G0 F10500 X92.183 Y116.932
G1 F2400 X91.499 Y116.248 E569.74187
G0 F10500 X94.767 Y112.445
G1 F2400 X94.084 Y111.761 E569.76081
G0 F10500 X94.518 Y112.309
;TYPE:SKIN
G1 F1800 X76.267 Y130.561 E570.26657
G0 F10500 X76.005 Y130.116
G1 F1800 X95.480 Y110.640 E570.80625
G0 F10500 X96.443 Y108.971
G1 F1800 X75.744 Y129.669 E571.37981
G0 F10500 X75.482 Y129.224
G1 F1800 X97.404 Y107.302 E571.98728
G0 F10500 X96.797 Y107.202
G1 F1800 X75.221 Y128.778 E572.58517
G0 F10500 X74.959 Y128.333
G1 F1800 X96.090 Y107.202 E573.17072
G0 F10500 X95.383 Y107.202
G1 F1800 X74.698 Y127.887 E573.74391
G0 F10500 X74.437 Y127.441
G1 F1800 X94.676 Y107.202 E574.30475
G0 F10500 X93.969 Y107.202
G1 F1800 X74.175 Y126.996 E574.85325
G0 F10500 X73.913 Y126.550
G1 F1800 X93.262 Y107.202 E575.38941
G0 F10500 X92.555 Y107.202
G1 F1800 X73.652 Y126.104 E575.91321
G0 F10500 X73.391 Y125.659
G1 F1800 X91.848 Y107.202 E576.42466
G0 F10500 X91.141 Y107.202
G1 F1800 X73.129 Y125.213 E576.92377
G0 F10500 X72.868 Y124.768
G1 F1800 X90.434 Y107.202 E577.41053
G0 F10500 X89.726 Y107.202
G1 F1800 X72.607 Y124.322 E577.88492
G0 F10500 X72.345 Y123.876
G1 F1800 X89.019 Y107.202 E578.34697
G0 F10500 X88.312 Y107.202
G1 F1800 X72.083 Y123.431 E578.79668
G0 F10500 X71.822 Y122.985
G1 F1800 X87.605 Y107.202 E579.23404
G0 F10500 X86.898 Y107.202
G1 F1800 X71.561 Y122.539 E579.65904
G0 F10500 X71.299 Y122.094
G1 F1800 X86.191 Y107.202 E580.07170
G0 F10500 X85.484 Y107.202
G1 F1800 X71.038 Y121.648 E580.47201
G0 F10500 X70.776 Y121.203
G1 F1800 X84.777 Y107.202 E580.85999
G0 F10500 X84.070 Y107.202
G1 F1800 X70.515 Y120.756 E581.23559
G0 F10500 X70.253 Y120.311
G1 F1800 X83.362 Y107.202 E581.59885
G0 F10500 X82.655 Y107.202
G1 F1800 X69.992 Y119.865 E581.94974
G0 F10500 X69.730 Y119.420
G1 F1800 X81.948 Y107.202 E582.28831
G0 F10500 X81.241 Y107.202
G1 F1800 X69.469 Y118.974 E582.61452
G0 F10500 X69.208 Y118.528
G1 F1800 X80.534 Y107.202 E582.92837
G0 F10500 X93.557 Y113.978
G1 F1800 X76.528 Y131.007 E583.40025
G0 F10500 X76.790 Y131.452
G1 F1800 X92.595 Y115.647 E583.83822
G0 F10500 X91.633 Y117.316
G1 F1800 X77.051 Y131.898 E584.24230
G0 F10500 X77.312 Y132.344
G1 F1800 X90.671 Y118.985 E584.61248
G0 F10500 X89.709 Y120.654
G1 F1800 X77.574 Y132.789 E584.94875
G0 F10500 X77.835 Y133.235
G1 F1800 X88.748 Y122.323 E585.25114
G0 F10500 X87.786 Y123.991
G1 F1800 X78.097 Y133.681 E585.51964
G0 F10500 X78.358 Y134.126
G1 F1800 X86.824 Y125.661 E585.75423
G0 F10500 X85.862 Y127.330
G1 F1800 X78.620 Y134.572 E585.95491
G0 F10500 X78.881 Y135.018
G1 F1800 X84.900 Y128.998 E586.12171
G0 F10500 X83.939 Y130.667
G1 F1800 X79.142 Y135.463 E586.25462
G0 F10500 X79.404 Y135.909
G1 F1800 X82.977 Y132.336 E586.35363
G0 F10500 X82.015 Y134.005
G1 F1800 X79.666 Y136.354 E586.41873
G0 F10500 X79.927 Y136.801
G1 F1800 X81.053 Y135.674 E586.44994
G0 F10500 X68.946 Y118.083
G1 F1800 X79.827 Y107.202 E586.75146
G0 F10500 X79.120 Y107.202
G1 F1800 X68.684 Y117.637 E587.04063
G0 F10500 X68.423 Y117.191
G1 F1800 X78.413 Y107.202 E587.31745
G0 F10500 X77.706 Y107.202
G1 F1800 X68.162 Y116.746 E587.58192
G0 F10500 X67.900 Y116.300
G1 F1800 X76.998 Y107.202 E587.83403
G0 F10500 X76.291 Y107.202
G1 F1800 X67.639 Y115.855 E588.07379
G0 F10500 X67.378 Y115.409
G1 F1800 X75.584 Y107.202 E588.30120
G0 F10500 X74.877 Y107.202
G1 F1800 X67.116 Y114.963 E588.51626
G0 F10500 X66.854 Y114.518
G1 F1800 X74.170 Y107.202 E588.71899
G0 F10500 X73.463 Y107.202
G1 F1800 X66.593 Y114.072 E588.90936
G0 F10500 X66.332 Y113.626
G1 F1800 X72.756 Y107.202 E589.08738
G0 F10500 X72.049 Y107.202
G1 F1800 X66.070 Y113.180 E589.25304
G0 F10500 X65.809 Y112.735
G1 F1800 X71.342 Y107.202 E589.40637
G0 F10500 X70.635 Y107.202
G1 F1800 X65.548 Y112.289 E589.54733
G0 F10500 X65.286 Y111.843
G1 F1800 X69.927 Y107.202 E589.67594
G0 F10500 X69.220 Y107.202
G1 F1800 X65.024 Y111.398 E589.79221
G0 F10500 X64.763 Y110.952
G1 F1800 X68.513 Y107.202 E589.89612
G0 F10500 X67.806 Y107.202
G1 F1800 X64.502 Y110.506 E589.98768
G0 F10500 X64.240 Y110.061
G1 F1800 X67.099 Y107.202 E590.06690
G0 F10500 X66.392 Y107.202
G1 F1800 X63.979 Y109.615 E590.13377
G0 F10500 X63.717 Y109.170
G1 F1800 X65.685 Y107.202 E590.18830
G0 F10500 X64.978 Y107.202
G1 F1800 X63.456 Y108.724 E590.23048
G0 F10500 X63.194 Y108.278
G1 F1800 X64.271 Y107.202 E590.26031
G0 F10500 X63.563 Y107.202
G1 F1800 X63.471 Y107.294 E590.26286
;LAYER:6
G1 F600 E588.51286
G1 Z1.775
G0 F10500 X54.751 Y100.186 Z1.925
;TYPE:WALL-INNER
G1 Z1.925
G1 F600 E590.26286
G1 F2100 X54.751 Y80.312 E590.65228
G1 X80.000 Y55.064 E591.35193
G1 X105.249 Y80.312 E592.05158
G1 X105.249 Y100.184 E592.44096
G1 X80.001 Y74.935 E593.14061
G1 X54.751 Y100.186 E593.84031
G0 F10500 X54.251 Y101.392
;TYPE:WALL-OUTER
G1 F1800 X54.251 Y80.106 E594.25740
G1 X80.000 Y54.358 E594.97090
G1 X105.749 Y80.106 E595.68441
G1 X105.749 Y101.389 E596.10143
G1 X80.001 Y75.642 E596.81491
G1 X54.251 Y101.392 E597.52846
G1 F600 E595.77846
G1 Z2.025
G0 F10500 X54.926 Y97.101
;TYPE:FILL
G1 Z1.925
G1 F600 E597.52846
G1 F2400 X55.078 Y96.949 E597.53267
G0 F10500 X57.669 Y96.560
G1 F2400 X57.898 Y96.789 E597.53902
G0 F10500 X55.079 Y93.970
G1 F2400 X54.925 Y93.816 E597.54328
G0 F10500 X54.926 Y90.030
G1 F2400 X55.078 Y89.878 E597.54750
G0 F10500 X55.079 Y86.899
G1 F2400 X54.925 Y86.745 E597.55176
G0 F10500 X54.926 Y82.959
G1 F2400 X55.078 Y82.807 E597.55598
G0 F10500 X55.492 Y80.241
G1 F2400 X55.281 Y80.030 E597.56182
G0 F10500 X58.817 Y76.494
G1 F2400 X59.027 Y76.705 E597.56766
G0 F10500 X62.563 Y73.169
G1 F2400 X62.352 Y72.959 E597.57349
G0 F10500 X65.888 Y69.423
G1 F2400 X66.098 Y69.634 E597.57932
G0 F10500 X69.634 Y66.098
G1 F2400 X69.423 Y65.888 E597.58516
G0 F10500 X72.959 Y62.352
G1 F2400 X73.169 Y62.563 E597.59099
G0 F10500 X78.882 Y75.347
G1 F2400 X79.111 Y75.576 E597.59733
G0 F10500 X75.576 Y79.111
G1 F2400 X75.347 Y78.882 E597.60368
G0 F10500 X71.811 Y82.418
G1 F2400 X72.040 Y82.647 E597.61003
G0 F10500 X68.505 Y86.182
G1 F2400 X68.276 Y85.953 E597.61637
G0 F10500 X64.740 Y89.489
G1 F2400 X64.969 Y89.718 E597.62272
G0 F10500 X61.434 Y93.253
G1 F2400 X61.205 Y93.024 E597.62906
G0 F10500 X80.001 Y75.089
G0 X82.206 Y76.892
G1 F2400 X82.436 Y76.662 E597.63544
G0 F10500 X91.684 Y67.414
G1 F2400 X91.893 Y67.205 E597.64123
G0 F10500 X88.357 Y63.670
G1 F2400 X88.148 Y63.879 E597.64702
G0 F10500 X84.613 Y60.343
G1 F2400 X84.822 Y60.134 E597.65281
G0 F10500 X95.429 Y70.741
G1 F2400 X95.219 Y70.950 E597.65862
G0 F10500 X98.755 Y74.485
G1 F2400 X98.964 Y74.276 E597.66441
G0 F10500 X102.500 Y77.812
G1 F2400 X102.290 Y78.021 E597.67021
G0 F10500 X93.043 Y87.268
G1 F2400 X92.812 Y87.499 E597.67661
G0 F10500 X89.277 Y83.963
G1 F2400 X89.507 Y83.733 E597.68299
G0 F10500 X85.972 Y80.197
G1 F2400 X85.741 Y80.428 E597.68939
G0 F10500 X96.348 Y91.035
G1 F2400 X96.578 Y90.804 E597.69578
G0 F10500 X100.114 Y94.340
G1 F2400 X99.883 Y94.570 E597.70216
G0 F10500 X103.419 Y98.106
G1 F2400 X103.649 Y97.875 E597.70855
G0 F10500 X81.077 Y56.808
G1 F2400 X81.286 Y56.598 E597.71436
G0 F10500 X76.705 Y59.027
G1 F2400 X76.494 Y58.817 E597.72019
G0 F10500 X76.318 Y58.993
;TYPE:SKIN
G1 F1800 X105.073 Y87.749 E598.51702
G0 F10500 X105.073 Y88.456
G1 F1800 X75.964 Y59.347 E599.32365
G0 F10500 X75.610 Y59.701
G1 F1800 X105.073 Y89.163 E600.14007
G0 F10500 X105.073 Y89.870
G1 F1800 X75.257 Y60.054 E600.96629
G0 F10500 X74.903 Y60.408
G1 F1800 X105.073 Y90.577 E601.80230
G0 F10500 X105.073 Y91.284
G1 F1800 X74.550 Y60.761 E602.64811
G0 F10500 X74.196 Y61.115
G1 F1800 X105.073 Y91.991 E603.50372
G0 F10500 X105.073 Y92.698
G1 F1800 X73.843 Y61.468 E604.36912
G0 F10500 X73.489 Y61.822
G1 F1800 X105.073 Y93.405 E605.24431
G0 F10500 X105.073 Y94.113
G1 F1800 X73.136 Y62.175 E606.12932
G0 F10500 X72.782 Y62.529
G1 F1800 X105.073 Y94.820 E607.02412
G0 F10500 X105.073 Y95.527
G1 F1800 X72.428 Y62.883 E607.92872
G0 F10500 X72.075 Y63.236
G1 F1800 X105.073 Y96.234 E608.84311
G0 F10500 X105.073 Y96.941
G1 F1800 X71.721 Y63.590 E609.76730
G0 F10500 X71.368 Y63.943
G1 F1800 X105.073 Y97.648 E610.70129
G0 F10500 X105.073 Y98.355
G1 F1800 X71.014 Y64.297 E611.64507
G0 F10500 X70.661 Y64.650
G1 F1800 X105.073 Y99.062 E612.59864
G0 F10500 X105.073 Y87.042
G1 F1800 X76.671 Y58.640 E613.38568
G0 F10500 X77.025 Y58.286
G1 F1800 X105.073 Y86.334 E614.16290
G0 F10500 X105.073 Y85.627
G1 F1800 X77.378 Y57.933 E614.93034
G0 F10500 X77.732 Y57.579
G1 F1800 X105.073 Y84.920 E615.68797
G0 F10500 X105.073 Y84.213
G1 F1800 X78.085 Y57.226 E616.43581
G0 F10500 X78.439 Y56.872
G1 F1800 X105.073 Y83.506 E617.17385
G0 F10500 X105.073 Y82.799
G1 F1800 X78.792 Y56.519 E617.90210
G0 F10500 X79.146 Y56.165
G1 F1800 X105.073 Y82.092 E618.62055
G0 F10500 X105.073 Y81.385
G1 F1800 X79.500 Y55.811 E619.32921
G0 F10500 X79.853 Y55.458
G1 F1800 X105.073 Y80.678 E620.02807
G0 F10500 X79.995 Y74.692
G1 F1800 X70.307 Y65.004 E620.29653
G0 F10500 X69.954 Y65.357
G1 F1800 X79.642 Y75.045 E620.56499
G0 F10500 X79.288 Y75.399
G1 F1800 X69.600 Y65.711 E620.83345
G0 F10500 X69.246 Y66.064
G1 F1800 X78.935 Y75.753 E621.10194
G0 F10500 X78.581 Y76.106
G1 F1800 X68.893 Y66.418 E621.37040
G0 F10500 X68.539 Y66.772
G1 F1800 X78.227 Y76.460 E621.63886
G0 F10500 X77.874 Y76.813
G1 F1800 X68.186 Y67.125 E621.90732
G0 F10500 X67.832 Y67.479
G1 F1800 X77.520 Y77.167 E622.17578
G0 F10500 X77.167 Y77.520
G1 F1800 X67.479 Y67.832 E622.44424
G0 F10500 X67.125 Y68.186
G1 F1800 X76.813 Y77.874 E622.71270
G0 F10500 X76.460 Y78.227
G1 F1800 X66.772 Y68.539 E622.98116
G0 F10500 X66.418 Y68.893
G1 F1800 X76.106 Y78.581 E623.24962
G0 F10500 X75.753 Y78.935
G1 F1800 X66.064 Y69.246 E623.51810
G0 F10500 X65.711 Y69.600
G1 F1800 X75.399 Y79.288 E623.78656
G0 F10500 X75.045 Y79.642
G1 F1800 X65.357 Y69.954 E624.05502
G0 F10500 X65.004 Y70.307
G1 F1800 X74.692 Y79.995 E624.32348
G0 F10500 X74.338 Y80.349
G1 F1800 X64.650 Y70.661 E624.59194
G0 F10500 X64.297 Y71.014
G1 F1800 X73.985 Y80.702 E624.86040
G0 F10500 X73.631 Y81.056
G1 F1800 X63.943 Y71.368 E625.12886
G0 F10500 X63.590 Y71.721
G1 F1800 X73.278 Y81.409 E625.39732
G0 F10500 X72.924 Y81.763
G1 F1800 X63.236 Y72.075 E625.66578
G0 F10500 X62.883 Y72.428
G1 F1800 X72.571 Y82.117 E625.93426
G0 F10500 X72.217 Y82.470
G1 F1800 X62.529 Y72.782 E626.20272
G0 F10500 X62.175 Y73.136
G1 F1800 X71.863 Y82.824 E626.47118
G0 F10500 X71.510 Y83.177
G1 F1800 X61.822 Y73.489 E626.73964
G0 F10500 X61.468 Y73.843
G1 F1800 X71.156 Y83.531 E627.00810
G0 F10500 X70.803 Y83.884
G1 F1800 X61.115 Y74.196 E627.27656
G0 F10500 X60.761 Y74.550
G1 F1800 X70.449 Y84.238 E627.54502
G0 F10500 X70.096 Y84.591
G1 F1800 X60.408 Y74.903 E627.81348
G0 F10500 X60.054 Y75.257
G1 F1800 X69.742 Y84.945 E628.08194
G0 F10500 X69.389 Y85.298
G1 F1800 X59.701 Y75.610 E628.35040
G0 F10500 X59.347 Y75.964
G1 F1800 X69.035 Y85.652 E628.61886
G0 F10500 X68.681 Y86.006
G1 F1800 X58.993 Y76.318 E628.88732
G0 F10500 X58.640 Y76.671
G1 F1800 X68.328 Y86.359 E629.15578
G0 F10500 X67.974 Y86.713
G1 F1800 X58.286 Y77.025 E629.42424
G0 F10500 X57.933 Y77.378
G1 F1800 X67.621 Y87.066 E629.69270
G0 F10500 X67.267 Y87.420
G1 F1800 X57.579 Y77.732 E629.96116
G0 F10500 X57.226 Y78.085
G1 F1800 X66.914 Y87.773 E630.22962
G0 F10500 X66.560 Y88.127
G1 F1800 X56.872 Y78.439 E630.49808
G0 F10500 X56.519 Y78.792
G1 F1800 X66.207 Y88.480 E630.76654
G0 F10500 X65.853 Y88.834
G1 F1800 X56.165 Y79.146 E631.03500
G0 F10500 X55.811 Y79.500
G1 F1800 X65.500 Y89.188 E631.30347
G0 F10500 X65.146 Y89.541
G1 F1800 X55.458 Y79.853 E631.57193
G0 F10500 X55.104 Y80.207
G1 F1800 X64.792 Y89.895 E631.84039
G0 F10500 X64.439 Y90.248
G1 F1800 X54.925 Y80.735 E632.10401
G0 F10500 X54.925 Y81.442
G1 F1800 X64.085 Y90.602 E632.35784
G0 F10500 X63.732 Y90.955
G1 F1800 X54.925 Y82.149 E632.60188
G0 F10500 X54.925 Y82.856
G1 F1800 X63.378 Y91.309 E632.83611
G0 F10500 X63.025 Y91.662
G1 F1800 X54.925 Y83.563 E633.06056
G0 F10500 X54.925 Y84.270
G1 F1800 X62.671 Y92.016 E633.27520
G0 F10500 X62.318 Y92.370
G1 F1800 X54.925 Y84.977 E633.48007
G0 F10500 X54.925 Y85.685
G1 F1800 X61.964 Y92.723 E633.67511
G0 F10500 X61.610 Y93.077
G1 F1800 X54.925 Y86.392 E633.86035
G0 F10500 X54.925 Y87.099
G1 F1800 X61.257 Y93.430 E634.03580
G0 F10500 X60.903 Y93.784
G1 F1800 X54.925 Y87.806 E634.20145
G0 F10500 X54.925 Y88.513
G1 F1800 X60.550 Y94.137 E634.35731
G0 F10500 X60.196 Y94.491
G1 F1800 X54.925 Y89.220 E634.50338
G0 F10500 X54.925 Y89.927
G1 F1800 X59.843 Y94.844 E634.63964
G0 F10500 X59.489 Y95.198
G1 F1800 X54.925 Y90.634 E634.76611
G0 F10500 X54.925 Y91.341
G1 F1800 X59.136 Y95.552 E634.88280
G0 F10500 X58.782 Y95.905
G1 F1800 X54.925 Y92.049 E634.98967
G0 F10500 X54.925 Y92.756
G1 F1800 X58.428 Y96.259 E635.08674
G0 F10500 X58.075 Y96.612
G1 F1800 X54.925 Y93.463 E635.17401
G0 F10500 X54.925 Y94.170
G1 F1800 X57.721 Y96.966 E635.25149
G0 F10500 X57.368 Y97.319
G1 F1800 X54.925 Y94.877 E635.31917
G0 F10500 X54.925 Y95.584
G1 F1800 X57.014 Y97.673 E635.37706
G0 F10500 X56.661 Y98.026
G1 F1800 X54.925 Y96.291 E635.42515
G0 F10500 X54.925 Y96.998
G1 F1800 X56.307 Y98.380 E635.46345
G0 F10500 X55.954 Y98.734
G1 F1800 X54.925 Y97.705 E635.49196
G0 F10500 X54.925 Y98.413
G1 F1800 X55.423 Y99.264 E635.51063
G1 X54.925 Y99.120 E635.52078
G1 F600 E633.77078
G1 Z2.025
G0 F10500 X61.761 Y106.746
;TYPE:WALL-INNER
G1 Z1.925
G1 F600 E635.52078
G1 F2100 X98.253 Y106.746 E636.23582
G1 X81.686 Y135.506 E636.88616
G1 X80.187 Y138.111 E636.94506
G1 X61.761 Y106.746 E637.65784
G0 F10500 X60.887 Y106.246
;TYPE:WALL-OUTER
G1 F1800 X99.117 Y106.246 E638.40693
G1 X82.123 Y135.749 E639.07406
G1 X80.191 Y139.105 E639.14994
G1 X60.887 Y106.246 E639.89668
G1 F600 E638.14668
G1 Z2.025
G0 F10500 X63.641 Y109.599
;TYPE:FILL
G1 Z1.925
G1 F600 E639.89668
G1 F2400 X64.322 Y108.918 E639.91555
G0 F10500 X63.645 Y109.607
G1 F2400 X66.267 Y112.229 E639.98820
G0 F10500 X66.938 Y113.373
G1 F2400 X66.258 Y114.054 E640.00706
G0 F10500 X69.555 Y117.828
G1 F2400 X68.875 Y118.508 E640.02590
G0 F10500 X68.961 Y107.852
G1 F2400 X68.029 Y106.920 E640.05173
G0 F10500 X66.320 Y106.920
G1 F2400 X65.388 Y107.852 E640.07756
G0 F10500 X72.459 Y107.852
G1 F2400 X73.392 Y106.920 E640.10340
G0 F10500 X75.100 Y106.920
G1 F2400 X76.032 Y107.852 E640.12922
G0 F10500 X79.530 Y107.852
G1 F2400 X80.463 Y106.920 E640.15506
G0 F10500 X82.171 Y106.920
G1 F2400 X83.103 Y107.852 E640.18089
G0 F10500 X86.601 Y107.852
G1 F2400 X87.534 Y106.920 E640.20673
G0 F10500 X89.242 Y106.920
G1 F2400 X90.174 Y107.852 E640.23256
G0 F10500 X93.672 Y107.852
G1 F2400 X94.605 Y106.920 E640.25840
G0 F10500 X96.313 Y106.920
G1 F2400 X97.352 Y107.958 E640.28717
G0 F10500 X94.084 Y111.761
G1 F2400 X94.767 Y112.445 E640.30611
G0 F10500 X92.887 Y115.708
G1 F2400 X90.349 Y118.246 E640.37644
G0 F10500 X92.183 Y116.932
G1 F2400 X91.499 Y116.248 E640.39540
G0 F10500 X88.915 Y120.735
G1 F2400 X89.599 Y121.419 E640.41435
G0 F10500 X86.331 Y125.222
G1 F2400 X87.015 Y125.906 E640.43331
G0 F10500 X83.746 Y129.708
G1 F2400 X84.430 Y130.392 E640.45226
G0 F10500 X83.282 Y132.385
G1 F2400 X80.745 Y134.921 E640.52255
G0 F10500 X81.163 Y134.196
G1 F2400 X81.846 Y134.879 E640.54147
G0 F10500 X80.021 Y135.646
G1 F2400 X79.342 Y136.325 E640.56029
G0 F10500 X76.726 Y131.870
G1 F2400 X77.404 Y131.191 E640.57909
G0 F10500 X76.333 Y129.366
G1 F2400 X73.715 Y126.748 E640.65164
G0 F10500 X74.109 Y127.416
G1 F2400 X74.788 Y126.736 E640.67047
G0 F10500 X71.492 Y122.962
G1 F2400 X72.172 Y122.282 E640.68931
G0 F10500 X71.984 Y123.249
;TYPE:SKIN
G1 F1800 X82.285 Y133.550 E640.97476
G0 F10500 X82.026 Y133.998
G1 F1800 X72.989 Y124.962 E641.22516
G0 F10500 X73.995 Y126.674
G1 F1800 X81.768 Y134.447 E641.44056
G0 F10500 X81.509 Y134.896
G1 F1800 X75.001 Y128.387 E641.62091
G0 F10500 X76.006 Y130.100
G1 F1800 X81.251 Y135.345 E641.76625
G0 F10500 X80.992 Y135.793
G1 F1800 X77.012 Y131.813 E641.87654
G0 F10500 X78.017 Y133.525
G1 F1800 X80.734 Y136.242 E641.95183
G0 F10500 X80.475 Y136.690
G1 F1800 X79.024 Y135.239 E641.99204
G0 F10500 X82.543 Y133.101
G1 F1800 X70.978 Y121.536 E642.31251
G0 F10500 X69.972 Y119.823
G1 F1800 X82.802 Y132.653 E642.66804
G0 F10500 X83.060 Y132.204
G1 F1800 X68.966 Y118.110 E643.05859
G0 F10500 X67.961 Y116.398
G1 F1800 X83.319 Y131.755 E643.48416
G0 F10500 X83.577 Y131.306
G1 F1800 X66.955 Y114.684 E643.94476
G0 F10500 X65.949 Y112.972
G1 F1800 X83.835 Y130.858 E644.44039
G0 F10500 X84.094 Y130.409
G1 F1800 X64.944 Y111.259 E644.97105
G0 F10500 X63.938 Y109.547
G1 F1800 X84.352 Y129.961 E645.53673
G0 F10500 X84.610 Y129.512
G1 F1800 X63.076 Y107.978 E646.13345
G0 F10500 X63.335 Y107.529
G1 F1800 X84.869 Y129.063 E646.73017
G0 F10500 X85.127 Y128.614
G1 F1800 X63.715 Y107.202 E647.32351
G0 F10500 X64.422 Y107.202
G1 F1800 X85.386 Y128.166 E647.90443
G0 F10500 X85.644 Y127.717
G1 F1800 X65.129 Y107.202 E648.47292
G0 F10500 X65.836 Y107.202
G1 F1800 X85.903 Y127.269 E649.02898
G0 F10500 X86.161 Y126.820
G1 F1800 X66.543 Y107.202 E649.57261
G0 F10500 X67.250 Y107.202
G1 F1800 X86.420 Y126.372 E650.10382
G0 F10500 X86.678 Y125.922
G1 F1800 X67.957 Y107.202 E650.62258
G0 F10500 X68.665 Y107.202
G1 F1800 X86.937 Y125.474 E651.12891
G0 F10500 X87.195 Y125.025
G1 F1800 X69.372 Y107.202 E651.62279
G0 F10500 X70.079 Y107.202
G1 F1800 X87.454 Y124.577 E652.10426
G0 F10500 X87.712 Y124.128
G1 F1800 X70.786 Y107.202 E652.57329
G0 F10500 X71.493 Y107.202
G1 F1800 X87.971 Y123.680 E653.02991
G0 F10500 X88.229 Y123.231
G1 F1800 X72.200 Y107.202 E653.47408
G0 F10500 X72.907 Y107.202
G1 F1800 X88.488 Y122.782 E653.90582
G0 F10500 X88.746 Y122.333
G1 F1800 X73.614 Y107.202 E654.32513
G0 F10500 X74.321 Y107.202
G1 F1800 X89.004 Y121.885 E654.73200
G0 F10500 X89.263 Y121.436
G1 F1800 X75.028 Y107.202 E655.12645
G0 F10500 X75.736 Y107.202
G1 F1800 X89.521 Y120.988 E655.50845
G0 F10500 X89.779 Y120.539
G1 F1800 X76.443 Y107.202 E655.87801
G0 F10500 X77.150 Y107.202
G1 F1800 X90.038 Y120.090 E656.23515
G0 F10500 X80.029 Y136.951
G1 F1800 X80.217 Y137.139 E656.24035
G0 F10500 X90.296 Y119.641
G1 F1800 X77.857 Y107.202 E656.58505
G0 F10500 X78.564 Y107.202
G1 F1800 X90.555 Y119.193 E656.91732
G0 F10500 X90.813 Y118.744
G1 F1800 X79.271 Y107.202 E657.23716
G0 F10500 X79.978 Y107.202
G1 F1800 X91.072 Y118.296 E657.54458
G0 F10500 X91.330 Y117.847
G1 F1800 X80.685 Y107.202 E657.83956
G0 F10500 X81.392 Y107.202
G1 F1800 X91.589 Y117.398 E658.12211
G0 F10500 X91.847 Y116.949
G1 F1800 X82.100 Y107.202 E658.39221
G0 F10500 X82.807 Y107.202
G1 F1800 X92.106 Y116.501 E658.64989
G0 F10500 X92.364 Y116.052
G1 F1800 X83.514 Y107.202 E658.89512
G0 F10500 X84.221 Y107.202
G1 F1800 X92.623 Y115.604 E659.12795
G0 F10500 X92.882 Y115.155
G1 F1800 X84.928 Y107.202 E659.34834
G0 F10500 X85.635 Y107.202
G1 F1800 X93.140 Y114.706 E659.55630
G0 F10500 X93.398 Y114.258
G1 F1800 X86.342 Y107.202 E659.75182
G0 F10500 X87.049 Y107.202
G1 F1800 X93.657 Y113.809 E659.93492
G0 F10500 X93.915 Y113.361
G1 F1800 X87.756 Y107.202 E660.10559
G0 F10500 X88.464 Y107.202
G1 F1800 X94.173 Y112.912 E660.26380
G0 F10500 X94.432 Y112.463
G1 F1800 X89.171 Y107.202 E660.40959
G0 F10500 X89.878 Y107.202
G1 F1800 X94.690 Y112.014 E660.54293
G0 F10500 X94.949 Y111.566
G1 F1800 X90.585 Y107.202 E660.66386
G0 F10500 X91.292 Y107.202
G1 F1800 X95.207 Y111.117 E660.77235
G0 F10500 X95.466 Y110.669
G1 F1800 X91.999 Y107.202 E660.86842
G0 F10500 X92.706 Y107.202
G1 F1800 X95.724 Y110.220 E660.95205
G0 F10500 X95.983 Y109.771
G1 F1800 X93.413 Y107.202 E661.02325
G0 F10500 X94.120 Y107.202
G1 F1800 X96.241 Y109.322 E661.08201
G0 F10500 X96.500 Y108.874
G1 F1800 X94.827 Y107.202 E661.12836
G0 F10500 X95.535 Y107.202
G1 F1800 X96.758 Y108.425 E661.16225
G0 F10500 X97.017 Y107.977
G1 F1800 X96.242 Y107.202 E661.18373
G0 F10500 X96.949 Y107.202
G1 F1800 X97.275 Y107.528 E661.19276
;LAYER:7
G1 F600 E659.44276
G1 Z2.025
G0 F10500 X105.249 Y100.184 Z2.175
;TYPE:WALL-INNER
G1 Z2.175
G1 F600 E661.19276
G1 F2100 X80.001 Y74.935 E661.89241
G1 X54.751 Y100.186 E662.59212
G1 X54.751 Y80.312 E662.98153
G1 X79.848 Y55.218 E663.67694
G1 X80.001 Y55.065 E663.68118
G1 X104.700 Y79.765 E664.36562
G1 X105.064 Y80.128 E664.37569
G1 X105.249 Y80.312 E664.38081
G1 X105.249 Y100.184 E664.77018
G0 F10500 X105.749 Y101.389
;TYPE:WALL-OUTER
G1 F1800 X80.001 Y75.642 E665.48366
G1 X54.251 Y101.392 E666.19721
G1 X54.251 Y80.106 E666.61429
G1 X79.853 Y54.505 E667.32373
G1 X80.000 Y54.358 E667.32780
G1 X105.749 Y80.106 E668.04131
G1 X105.749 Y101.389 E668.45833
G1 F600 E666.70833
G1 Z2.275
G0 F10500 X103.419 Y98.106
;TYPE:FILL
G1 Z2.175
G1 F600 E668.45833
G1 F2400 X103.649 Y97.875 E668.46472
G0 F10500 X100.114 Y94.340
G1 F2400 X99.883 Y94.570 E668.47111
G0 F10500 X96.348 Y91.035
G1 F2400 X96.578 Y90.804 E668.47749
G0 F10500 X93.043 Y87.268
G1 F2400 X92.812 Y87.499 E668.48389
G0 F10500 X89.277 Y83.963
G1 F2400 X89.507 Y83.733 E668.49027
G0 F10500 X85.972 Y80.197
G1 F2400 X85.741 Y80.428 E668.49667
G0 F10500 X82.206 Y76.892
G1 F2400 X82.436 Y76.662 E668.50304
G0 F10500 X91.684 Y67.414
G1 F2400 X91.893 Y67.205 E668.50883
G0 F10500 X88.357 Y63.670
G1 F2400 X88.148 Y63.879 E668.51463
G0 F10500 X84.613 Y60.343
G1 F2400 X84.822 Y60.134 E668.52042
G0 F10500 X95.429 Y70.741
G1 F2400 X95.219 Y70.950 E668.52622
G0 F10500 X98.755 Y74.485
G1 F2400 X98.964 Y74.276 E668.53201
G0 F10500 X102.500 Y77.812
G1 F2400 X102.290 Y78.021 E668.53782
G0 F10500 X80.001 Y75.089
G0 X79.111 Y75.576
G1 F2400 X78.882 Y75.347 E668.54417
G0 F10500 X75.347 Y78.882
G1 F2400 X75.576 Y79.111 E668.55051
G0 F10500 X66.098 Y69.634
G1 F2400 X65.888 Y69.423 E668.55634
G0 F10500 X69.424 Y65.888
G1 F2400 X69.634 Y66.098 E668.56216
G0 F10500 X73.169 Y62.563
G1 F2400 X72.959 Y62.353 E668.56798
G0 F10500 X62.352 Y72.959
G1 F2400 X62.563 Y73.169 E668.57382
G0 F10500 X59.027 Y76.705
G1 F2400 X58.817 Y76.494 E668.57965
G0 F10500 X55.281 Y80.030
G1 F2400 X55.492 Y80.241 E668.58550
G0 F10500 X55.078 Y82.807
G1 F2400 X54.926 Y82.959 E668.58971
G0 F10500 X54.925 Y86.745
G1 F2400 X55.079 Y86.899 E668.59398
G0 F10500 X55.078 Y89.878
G1 F2400 X54.926 Y90.030 E668.59819
G0 F10500 X54.925 Y93.816
G1 F2400 X55.079 Y93.970 E668.60245
G0 F10500 X55.078 Y96.949
G1 F2400 X54.926 Y97.101 E668.60667
G0 F10500 X57.669 Y96.560
G1 F2400 X57.898 Y96.789 E668.61301
G0 F10500 X61.434 Y93.253
G1 F2400 X61.205 Y93.024 E668.61936
G0 F10500 X64.740 Y89.489
G1 F2400 X64.969 Y89.718 E668.62570
G0 F10500 X68.505 Y86.182
G1 F2400 X68.276 Y85.953 E668.63205
G0 F10500 X71.811 Y82.418
G1 F2400 X72.040 Y82.647 E668.63840
G0 F10500 X76.705 Y59.027
G1 F2400 X76.495 Y58.817 E668.64421
G0 F10500 X81.077 Y56.808
G1 F2400 X81.286 Y56.598 E668.65002
G0 F10500 X81.110 Y56.422
;TYPE:SKIN
G1 F1800 X54.926 Y82.605 E669.37558
G0 F10500 X54.926 Y83.312
G1 F1800 X81.463 Y56.775 E670.11093
G0 F10500 X81.817 Y57.129
G1 F1800 X54.926 Y84.019 E670.85609
G0 F10500 X54.926 Y84.726
G1 F1800 X82.170 Y57.482 E671.61103
G0 F10500 X82.524 Y57.836
G1 F1800 X54.926 Y85.434 E672.37579
G0 F10500 X54.926 Y86.141
G1 F1800 X82.877 Y58.189 E673.15034
G0 F10500 X83.231 Y58.543
G1 F1800 X54.926 Y86.848 E673.93469
G0 F10500 X54.926 Y87.555
G1 F1800 X83.584 Y58.897 E674.72882
G0 F10500 X83.938 Y59.250
G1 F1800 X54.926 Y88.262 E675.53276
G0 F10500 X54.926 Y88.969
G1 F1800 X84.292 Y59.604 E676.34649
G0 F10500 X84.645 Y59.957
G1 F1800 X54.926 Y89.676 E677.17002
G0 F10500 X54.926 Y90.383
G1 F1800 X84.999 Y60.311 E678.00335
G0 F10500 X85.352 Y60.664
G1 F1800 X54.926 Y91.090 E678.84647
G0 F10500 X54.926 Y91.798
G1 F1800 X85.706 Y61.018 E679.69940
G0 F10500 X86.059 Y61.371
G1 F1800 X54.926 Y92.505 E680.56213
G0 F10500 X54.926 Y93.212
G1 F1800 X86.413 Y61.725 E681.43465
G0 F10500 X86.766 Y62.079
G1 F1800 X54.926 Y93.919 E682.31695
G0 F10500 X54.926 Y94.626
G1 F1800 X87.120 Y62.432 E683.20907
G0 F10500 X87.474 Y62.786
G1 F1800 X54.926 Y95.333 E684.11098
G0 F10500 X54.926 Y96.040
G1 F1800 X87.827 Y63.139 E685.02268
G0 F10500 X88.181 Y63.493
G1 F1800 X54.926 Y96.747 E685.94418
G0 F10500 X54.926 Y97.454
G1 F1800 X88.534 Y63.846 E686.87548
G0 F10500 X88.888 Y64.200
G1 F1800 X54.926 Y98.161 E687.81657
G0 F10500 X54.926 Y98.869
G1 F1800 X89.241 Y64.553 E688.76748
G0 F10500 X89.595 Y64.907
G1 F1800 X54.991 Y99.511 E689.72637
G0 F10500 X54.926 Y81.898
G1 F1800 X80.756 Y56.068 E690.44214
G0 F10500 X80.402 Y55.715
G1 F1800 X54.926 Y81.191 E691.14809
G0 F10500 X54.926 Y80.484
G1 F1800 X80.049 Y55.361 E691.84426
G0 F10500 X89.948 Y65.261
G1 F1800 X80.261 Y74.948 E692.11270
G0 F10500 X80.615 Y75.301
G1 F1800 X90.302 Y65.614 E692.38113
G0 F10500 X90.656 Y65.968
G1 F1800 X80.968 Y75.655 E692.64957
G0 F10500 X81.322 Y76.009
G1 F1800 X91.009 Y66.321 E692.91802
G0 F10500 X91.363 Y66.675
G1 F1800 X81.675 Y76.362 E693.18647
G0 F10500 X82.029 Y76.716
G1 F1800 X91.716 Y67.028 E693.45491
G0 F10500 X92.070 Y67.382
G1 F1800 X82.382 Y77.069 E693.72336
G0 F10500 X82.736 Y77.423
G1 F1800 X92.423 Y67.735 E693.99180
G0 F10500 X92.777 Y68.089
G1 F1800 X83.089 Y77.776 E694.26025
G0 F10500 X83.443 Y78.130
G1 F1800 X93.130 Y68.442 E694.52870
G0 F10500 X93.484 Y68.796
G1 F1800 X83.797 Y78.483 E694.79713
G0 F10500 X84.150 Y78.837
G1 F1800 X93.838 Y69.150 E695.06557
G0 F10500 X94.191 Y69.503
G1 F1800 X84.504 Y79.191 E695.33402
G0 F10500 X84.857 Y79.544
G1 F1800 X94.545 Y69.857 E695.60247
G0 F10500 X94.898 Y70.210
G1 F1800 X85.211 Y79.898 E695.87091
G0 F10500 X85.564 Y80.251
G1 F1800 X95.252 Y70.564 E696.13936
G0 F10500 X95.605 Y70.917
G1 F1800 X85.918 Y80.605 E696.40781
G0 F10500 X86.271 Y80.958
G1 F1800 X95.959 Y71.271 E696.67625
G0 F10500 X96.312 Y71.624
G1 F1800 X86.625 Y81.312 E696.94470
G0 F10500 X86.979 Y81.665
G1 F1800 X96.666 Y71.978 E697.21313
G0 F10500 X97.020 Y72.332
G1 F1800 X87.332 Y82.019 E697.48158
G0 F10500 X87.686 Y82.372
G1 F1800 X97.373 Y72.685 E697.75001
G0 F10500 X97.727 Y73.039
G1 F1800 X88.039 Y82.726 E698.01845
G0 F10500 X88.393 Y83.080
G1 F1800 X98.080 Y73.392 E698.28690
G0 F10500 X98.434 Y73.746
G1 F1800 X88.746 Y83.433 E698.55535
G0 F10500 X89.100 Y83.787
G1 F1800 X98.787 Y74.099 E698.82379
G0 F10500 X99.141 Y74.453
G1 F1800 X89.453 Y84.140 E699.09224
G0 F10500 X89.807 Y84.494
G1 F1800 X99.494 Y74.806 E699.36068
G0 F10500 X99.848 Y75.160
G1 F1800 X90.161 Y84.847 E699.62912
G0 F10500 X90.514 Y85.201
G1 F1800 X100.201 Y75.514 E699.89755
G0 F10500 X100.555 Y75.867
G1 F1800 X90.868 Y85.554 E700.16598
G0 F10500 X91.221 Y85.908
G1 F1800 X100.909 Y76.221 E700.43443
G0 F10500 X101.262 Y76.574
G1 F1800 X91.575 Y86.262 E700.70287
G0 F10500 X91.928 Y86.615
G1 F1800 X101.616 Y76.928 E700.97132
G0 F10500 X101.969 Y77.281
G1 F1800 X92.282 Y86.969 E701.23977
G0 F10500 X92.635 Y87.322
G1 F1800 X102.323 Y77.635 E701.50821
G0 F10500 X102.676 Y77.988
G1 F1800 X92.989 Y87.676 E701.77666
G0 F10500 X93.343 Y88.029
G1 F1800 X103.030 Y78.342 E702.04509
G0 F10500 X103.383 Y78.696
G1 F1800 X93.696 Y88.383 E702.31352
G0 F10500 X94.050 Y88.736
G1 F1800 X103.737 Y79.049 E702.58196
G0 F10500 X104.091 Y79.403
G1 F1800 X94.403 Y89.090 E702.85040
G0 F10500 X94.757 Y89.444
G1 F1800 X104.444 Y79.756 E703.11885
G0 F10500 X104.798 Y80.110
G1 F1800 X95.110 Y89.797 E703.38729
G0 F10500 X95.464 Y90.151
G1 F1800 X105.073 Y80.542 E703.65356
G0 F10500 X105.073 Y81.249
G1 F1800 X95.817 Y90.504 E703.91004
G0 F10500 X96.171 Y90.858
G1 F1800 X105.073 Y81.956 E704.15672
G0 F10500 X105.073 Y82.663
G1 F1800 X96.525 Y91.211 E704.39359
G0 F10500 X96.878 Y91.565
G1 F1800 X105.073 Y83.370 E704.62068
G0 F10500 X105.073 Y84.077
G1 F1800 X97.232 Y91.918 E704.83796
G0 F10500 X97.585 Y92.272
G1 F1800 X105.073 Y84.784 E705.04545
G0 F10500 X105.073 Y85.492
G1 F1800 X97.939 Y92.626 E705.24314
G0 F10500 X98.292 Y92.979
G1 F1800 X105.073 Y86.199 E705.43103
G0 F10500 X105.073 Y86.906
G1 F1800 X98.646 Y93.333 E705.60913
G0 F10500 X98.999 Y93.686
G1 F1800 X105.073 Y87.613 E705.77743
G0 F10500 X105.073 Y88.320
G1 F1800 X99.353 Y94.040 E705.93593
G0 F10500 X99.707 Y94.393
G1 F1800 X105.073 Y89.027 E706.08463
G0 F10500 X105.073 Y89.734
G1 F1800 X100.060 Y94.747 E706.22354
G0 F10500 X100.414 Y95.100
G1 F1800 X105.073 Y90.441 E706.35264
G0 F10500 X105.073 Y91.148
G1 F1800 X100.767 Y95.454 E706.47196
G0 F10500 X101.121 Y95.808
G1 F1800 X105.073 Y91.855 E706.58149
G0 F10500 X105.073 Y92.563
G1 F1800 X101.474 Y96.161 E706.68121
G0 F10500 X101.828 Y96.515
G1 F1800 X105.073 Y93.270 E706.77113
G0 F10500 X105.073 Y93.977
G1 F1800 X102.181 Y96.868 E706.85125
